; generated by PrusaSlicer 2.5.0+win64 on 2023-03-13 at 17:49:00 UTC


;
;

;
;
; 

; external perimeters extrusion width = 0.45mm
; perimeters extrusion width = 0.45mm
; infill extrusion width = 0.45mm
; solid infill extrusion width = 0.45mm
; top infill extrusion width = 0.40mm
; first layer extrusion width = 0.42mm

M73 P0 R14
M73 Q0 S14
M201 X1000 Y1000 Z200 E5000 ; sets maximum accelerations, mm/sec^2
M203 X350 Y350 Z12 E120 ; sets maximum feedrates, mm / sec
M204 P1250 R1250 T1250 ; sets acceleration (P, T) and retract acceleration (R), mm/sec^2
M205 X8.00 Y8.00 Z0.40 E4.50 ; sets the jerk limits, mm/sec
M205 S0 T0 ; sets the minimum extruding and travel feed rate, mm/sec
M107
;TYPE:Custom
M190 S0 ; Prevents prusaslicer from prepending m190 to the gcode ruining our macro
M109 S0 ; Prevents prusaslicer from prepending m109 to the gcode ruining our macro

; Play a tune to always know you're using Escrich Klipper Phoenix 3D printer
M300 S440 P200
M300 S660 P250



START_PRINT EXTRUDER_TEMP=215 BED_TEMP=60


G21 ; set units to millimeters
G90 ; use absolute coordinates
M83 ; use relative distances for extrusion
M900 K0.05 ; Filament gcode LA 1.5
M900 K30 ; Filament gcode LA 1.0
M107
;LAYER_CHANGE
;Z:0.2
;HEIGHT:0.2
;BEFORE_LAYER_CHANGE
G92 E0.0
;0.2


G1 E-1 F2100
G1 Z.4 F720
;AFTER_LAYER_CHANGE
;0.2
G1 X26.376 Y26.376 F10800
G1 Z.2 F720
G1 E1 F2100
M204 S800
;TYPE:Skirt/Brim
;WIDTH:0.42
G1 F1200
G1 X27.019 Y25.733 E.02852
G1 X34.502 Y22.676 E.25344
G1 X104.502 Y7.676 E2.24463
G1 X105 Y7.623 E.0157
G1 X115 Y7.623 E.31354
G1 X115.498 Y7.676 E.0157
G1 X185.498 Y22.676 E2.24463
M73 P1 R14
M73 Q1 S14
G1 X192.981 Y25.733 E.25344
G1 X194.267 Y27.019 E.05704
G1 X197.324 Y34.502 E.25344
G1 X212.324 Y104.502 E2.24463
M73 P1 R13
G1 X212.377 Y105 E.0157
G1 X212.377 Y115 E.31354
G1 X212.324 Y115.498 E.0157
G1 X197.324 Y185.498 E2.24463
M73 P2 R13
M73 Q2 S14
G1 X194.267 Y192.981 E.25344
G1 X192.981 Y194.267 E.05704
G1 X185.498 Y197.324 E.25344
G1 X115.498 Y212.324 E2.24463
G1 X115 Y212.377 E.0157
G1 X105 Y212.377 E.31354
G1 X104.502 Y212.324 E.0157
G1 X34.502 Y197.324 E2.24463
M73 P3 R13
M73 Q3 S13
G1 X27.019 Y194.267 E.25344
G1 X25.733 Y192.981 E.05704
G1 X22.676 Y185.498 E.25344
G1 X7.676 Y115.498 E2.24463
G1 X7.623 Y115 E.0157
G1 X7.623 Y105 E.31354
G1 X7.676 Y104.502 E.0157
G1 X22.676 Y34.502 E2.24463
M73 P4 R13
M73 Q4 S13
G1 X25.733 Y27.019 E.25344
G1 X26.334 Y26.418 E.02664
M204 S1000
; printing object 20221220 Test pattern 200 x 200 x 1 and 0,4 hex plates.obj id:0 copy 0
;WIPE_START
G1 F8640
G1 X27.019 Y25.733 E-.2239
G1 X29.93 Y24.543 E-.7261
;WIPE_END
G1 E-.05 F2100
G1 Z.6 F720
G1 X114.706 Y159.432 F10800
G1 Z.2 F720
G1 E1 F2100
M204 S800
;TYPE:External perimeter
;WIDTH:0.552999
G1 F1200
G1 X114.673 Y159.468 E.00204
;WIDTH:0.552276
G1 X114.678 Y159.545 E.00325
;WIDTH:0.508085
G1 X114.683 Y159.621 E.00297
;WIDTH:0.463894
G1 X114.688 Y159.698 E.00269
;WIDTH:0.419996
G1 X114.688 Y209.004 E1.54593
;WIDTH:0.465415
G1 X114.619 Y209.619 E.02174
G1 X113.992 Y209.689 E.02215
;WIDTH:0.42
G1 X106.001 Y209.688 E.25056
;WIDTH:0.465416
G1 X105.381 Y209.619 E.0219
G1 X105.311 Y208.997 E.02199
;WIDTH:0.419998
G1 X105.312 Y159.698 E1.54571
;WIDTH:0.464134
G1 X105.318 Y159.622 E.00266
;WIDTH:0.508566
G1 X105.324 Y159.547 E.00294
;WIDTH:0.552998
G1 X105.329 Y159.471 E.00322
G1 X105.294 Y159.432 E.00221
G1 X105.219 Y159.431 E.00322
;WIDTH:0.508521
G1 X105.143 Y159.429 E.00294
;WIDTH:0.464043
G1 X105.067 Y159.427 E.00266
;WIDTH:0.42003
G1 X103.808 Y159.301 E.03968
G1 X101.386 Y158.936 E.0768
G1 X98.93 Y158.439 E.07857
G1 X96.542 Y157.831 E.07725
G1 X94.188 Y157.105 E.07725
G1 X91.86 Y156.259 E.07769
;WIDTH:0.419929
M73 P5 R13
G1 X89.551 Y155.285 E.07855
G1 X87.319 Y154.21 E.07767
M73 Q5 S13
G1 X85.168 Y153.038 E.07678
G1 X83.057 Y151.74 E.07769
;WIDTH:0.420032
G1 X81.006 Y150.352 E.07765
G1 X79.031 Y148.857 E.07769
G1 X77.118 Y147.252 E.07828
G1 X75.296 Y145.56 E.07798
G1 X73.576 Y143.797 E.07725
G1 X71.946 Y141.95 E.07725
G1 X70.392 Y140.002 E.07813
G1 X68.943 Y137.987 E.07784
G1 X67.599 Y135.905 E.07769
G1 X66.36 Y133.76 E.07769
G1 X65.226 Y131.546 E.07798
G1 X64.213 Y129.301 E.07725
G1 X63.313 Y127.008 E.07725
G1 X62.523 Y124.659 E.07769
G1 X61.852 Y122.275 E.07769
G1 X61.3 Y119.859 E.07769
G1 X60.866 Y117.406 E.07813
G1 X60.559 Y114.947 E.07768
;WIDTH:0.466355
G1 X60.556 Y114.866 E.00289
;WIDTH:0.513002
G1 X60.553 Y114.784 E.00321
;WIDTH:0.559649
G1 X60.55 Y114.702 E.00352
G1 X60.469 Y114.697 E.00348
;WIDTH:0.513052
G1 X60.388 Y114.693 E.00317
;WIDTH:0.466455
G1 X60.307 Y114.688 E.00285
;WIDTH:0.419996
G1 X10.996 Y114.688 E1.54611
;WIDTH:0.465417
G1 X10.381 Y114.619 E.02173
G1 X10.311 Y113.992 E.02215
;WIDTH:0.42
G1 X10.312 Y106.001 E.25056
;WIDTH:0.465417
G1 X10.381 Y105.381 E.0219
G1 X11.003 Y105.311 E.02198
;WIDTH:0.419996
G1 X60.307 Y105.312 E1.54589
;WIDTH:0.466389
G1 X60.379 Y105.316 E.00253
;WIDTH:0.512922
G1 X60.451 Y105.32 E.00281
;WIDTH:0.559454
G1 X60.523 Y105.324 E.00308
G1 X60.535 Y105.234 E.00392
;WIDTH:0.512872
G1 X60.547 Y105.143 E.00357
;WIDTH:0.46629
G1 X60.559 Y105.053 E.00321
;WIDTH:0.419965
G1 X60.869 Y102.58 E.07811
G1 X61.298 Y100.15 E.07738
M73 P6 R13
G1 X61.849 Y97.734 E.07767
G1 X62.515 Y95.368 E.07709
G1 X63.308 Y93.006 E.07812
M73 Q6 S13
G1 X64.215 Y90.695 E.07782
G1 X65.234 Y88.437 E.07767
G1 X66.369 Y86.224 E.07797
G1 X67.609 Y84.079 E.07767
G1 X68.954 Y81.998 E.07767
G1 X70.392 Y79.998 E.07723
G1 X71.939 Y78.057 E.07782
G1 X73.566 Y76.214 E.07708
G1 X75.306 Y74.43 E.07812
G1 X77.111 Y72.754 E.07723
G1 X79.009 Y71.161 E.07767
G1 X80.995 Y69.656 E.07812
G1 X83.054 Y68.253 E.07812
G1 X85.16 Y66.966 E.07738
G1 X87.336 Y65.782 E.07768
G1 X89.551 Y64.715 E.07708
G1 X91.851 Y63.745 E.07826
G1 X94.188 Y62.895 E.07797
G1 X96.542 Y62.169 E.07723
G1 X98.93 Y61.561 E.07723
G1 X101.372 Y61.066 E.07811
G1 X103.808 Y60.699 E.07723
G1 X105.067 Y60.573 E.03967
;WIDTH:0.464042
G1 X105.143 Y60.571 E.00266
;WIDTH:0.50852
G1 X105.218 Y60.569 E.00294
;WIDTH:0.552997
G1 X105.294 Y60.568 E.00322
G1 X105.329 Y60.529 E.00221
G1 X105.324 Y60.453 E.00322
;WIDTH:0.508566
G1 X105.318 Y60.378 E.00294
;WIDTH:0.464134
G1 X105.312 Y60.302 E.00266
;WIDTH:0.419998
G1 X105.312 Y10.996 E1.54594
;WIDTH:0.465416
G1 X105.381 Y10.381 E.02174
G1 X106.008 Y10.311 E.02215
;WIDTH:0.419999
G1 X113.999 Y10.312 E.25055
;WIDTH:0.46266
G1 X114.62 Y10.387 E.02185
G1 X114.689 Y11.003 E.02166
;WIDTH:0.419996
G1 X114.688 Y60.302 E1.54571
;WIDTH:0.464134
M73 P7 R13
G1 X114.682 Y60.378 E.00266
;WIDTH:0.508566
G1 X114.676 Y60.453 E.00294
;WIDTH:0.552997
G1 X114.671 Y60.529 E.00322
G1 X114.703 Y60.565 E.00204
;WIDTH:0.552277
G1 X114.78 Y60.568 E.00325
;WIDTH:0.50804
G1 X114.856 Y60.57 E.00297
;WIDTH:0.463803
G1 X114.933 Y60.573 E.00269
;WIDTH:0.420031
G1 X116.192 Y60.699 E.03968
G1 X118.642 Y61.069 E.07769
G1 X121.07 Y61.561 E.07769
M73 Q7 S13
G1 X123.458 Y62.169 E.07725
G1 X125.83 Y62.9 E.07783
G1 X128.14 Y63.741 E.0771
G1 X130.449 Y64.715 E.07857
G1 X132.656 Y65.777 E.0768
G1 X134.832 Y66.962 E.07769
G1 X137.153 Y68.393 E.0855
G1 X138.994 Y69.648 E.06987
G1 X140.969 Y71.143 E.07769
G1 X142.867 Y72.735 E.07769
G1 X144.704 Y74.44 E.07857
G1 X146.424 Y76.203 E.07725
G1 X148.072 Y78.072 E.07813
G1 X149.608 Y79.998 E.07725
G1 X151.046 Y81.998 E.07725
G1 X152.401 Y84.095 E.07828
G1 X153.631 Y86.224 E.0771
G1 X154.774 Y88.454 E.07857
G1 X155.787 Y90.699 E.07725
G1 X156.693 Y93.01 E.07784
G1 X157.482 Y95.359 E.07769
G1 X158.148 Y97.725 E.0771
G1 X158.706 Y100.168 E.07857
G1 X159.134 Y102.594 E.07725
G1 X159.441 Y105.053 E.07768
;WIDTH:0.466353
G1 X159.444 Y105.134 E.00289
;WIDTH:0.512999
G1 X159.447 Y105.216 E.00321
;WIDTH:0.559645
G1 X159.45 Y105.298 E.00352
G1 X159.531 Y105.303 E.00348
;WIDTH:0.51305
G1 X159.612 Y105.307 E.00317
;WIDTH:0.466454
G1 X159.693 Y105.312 E.00285
;WIDTH:0.419996
G1 X209.004 Y105.312 E1.54611
;WIDTH:0.465416
G1 X209.619 Y105.381 E.02173
G1 X209.689 Y106.015 E.0224
;WIDTH:0.42
G1 X209.688 Y113.999 E.25034
;WIDTH:0.465416
G1 X209.619 Y114.619 E.0219
G1 X208.997 Y114.689 E.02198
;WIDTH:0.419996
G1 X159.693 Y114.688 E1.54589
;WIDTH:0.466391
M73 P8 R13
M73 Q8 S13
G1 X159.621 Y114.684 E.00253
;WIDTH:0.512926
G1 X159.549 Y114.68 E.00281
;WIDTH:0.559461
G1 X159.477 Y114.676 E.00308
G1 X159.465 Y114.766 E.00392
;WIDTH:0.512877
G1 X159.453 Y114.857 E.00357
;WIDTH:0.466292
G1 X159.441 Y114.947 E.00321
;WIDTH:0.42007
G1 X159.131 Y117.42 E.07813
G1 X158.703 Y119.846 E.07725
G1 X158.155 Y122.247 E.07725
G1 X157.485 Y124.632 E.0777
G1 X156.692 Y126.994 E.07814
G1 X155.785 Y129.305 E.07784
G1 X154.766 Y131.563 E.0777
G1 X153.631 Y133.776 E.07799
G1 X152.391 Y135.921 E.0777
G1 X151.046 Y138.002 E.0777
G1 X149.608 Y140.002 E.07725
G1 X148.072 Y141.928 E.07725
G1 X146.434 Y143.786 E.0777
G1 X144.694 Y145.57 E.07814
G1 X142.867 Y147.265 E.07814
G1 X140.977 Y148.851 E.0774
G1 X138.994 Y150.352 E.07799
G1 X137.158 Y151.603 E.06966
G1 X134.859 Y153.023 E.08475
;WIDTH:0.419966
G1 X132.664 Y154.218 E.07835
M73 P8 R12
G1 X130.449 Y155.285 E.07708
G1 X128.149 Y156.255 E.07826
G1 X125.812 Y157.105 E.07797
G1 X123.458 Y157.831 E.07723
G1 X121.043 Y158.446 E.07812
G1 X118.628 Y158.934 E.07723
G1 X116.192 Y159.301 E.07723
G1 X114.933 Y159.427 E.03967
;WIDTH:0.464043
G1 X114.857 Y159.429 E.00266
;WIDTH:0.508521
G1 X114.782 Y159.431 E.00294
;WIDTH:0.552999
G1 X114.766 Y159.431 E.00068
M204 S1000
;WIPE_START
G1 F8640
G1 X114.673 Y159.468 E-.02298
G1 X114.678 Y159.545 E-.01774
G1 X114.683 Y159.621 E-.01774
G1 X114.688 Y159.698 E-.01774
G1 X114.688 Y163.482 E-.87379
;WIPE_END
G1 E-.05 F2100
G1 Z.6 F720
G1 X159.505 Y105.891 F10800
G1 Z.2 F720
G1 E1 F2100
M204 S800
;WIDTH:0.466312
G1 F1200
G1 X159.504 Y105.828 E.00223
;WIDTH:0.512884
G1 X159.504 Y105.764 E.00248
;WIDTH:0.559456
G1 X159.504 Y105.701 E.00272
G1 X159.567 Y105.697 E.00271
;WIDTH:0.512924
G1 X159.63 Y105.693 E.00246
;WIDTH:0.466391
G1 X159.693 Y105.689 E.00222
;WIDTH:0.419996
G1 X208.99 Y105.689 E1.54567
;WIDTH:0.465416
G1 X209.272 Y105.728 E.01002
G1 X209.311 Y106.015 E.01019
;WIDTH:0.42
G1 X209.311 Y113.985 E.2499
;WIDTH:0.465416
G1 X209.272 Y114.272 E.01019
G1 X208.99 Y114.311 E.01002
;WIDTH:0.419996
G1 X159.693 Y114.311 E1.54567
;WIDTH:0.466391
M73 P9 R12
M73 Q9 S13
G1 X159.63 Y114.307 E.00222
;WIDTH:0.512926
G1 X159.567 Y114.303 E.00246
;WIDTH:0.559461
G1 X159.504 Y114.299 E.00271
G1 X159.504 Y114.236 E.00272
;WIDTH:0.512887
G1 X159.504 Y114.172 E.00248
;WIDTH:0.466313
G1 X159.505 Y114.109 E.00223
;WIDTH:0.420032
G1 X159.627 Y112.477 E.05132
G1 X159.688 Y110.014 E.07725
G1 X159.627 Y107.528 E.07798
G1 X159.509 Y105.951 E.04958
M204 S1000
G1 X159.449 Y105.861 F10800
G1 X159.07 Y105.298
M204 S800
;WIDTH:0.559645
G1 F1200
G1 X159.016 Y105.302 E.00232
;WIDTH:0.51376
G1 X158.962 Y105.306 E.00211
;WIDTH:0.467875
G1 X158.909 Y105.31 E.00191
;WIDTH:0.42199
G1 X158.88 Y105.311 E.00089
;WIDTH:0.42
G1 X114.877 Y105.311 E1.3797
;WIDTH:0.459048
G1 X114.83 Y105.311 E.00163
;WIDTH:0.498096
G1 X114.783 Y105.311 E.00178
;WIDTH:0.537144
G1 X114.736 Y105.311 E.00194
;WIDTH:0.576191
G1 X114.689 Y105.311 E.00209
G1 X114.689 Y105.264 E.00209
;WIDTH:0.537143
G1 X114.689 Y105.217 E.00194
;WIDTH:0.498095
G1 X114.689 Y105.17 E.00178
;WIDTH:0.459047
G1 X114.689 Y105.123 E.00163
;WIDTH:0.419999
G1 X114.689 Y61.135 E1.3792
;WIDTH:0.464136
G1 X114.695 Y61.072 E.00222
;WIDTH:0.508568
G1 X114.7 Y61.009 E.00245
;WIDTH:0.552999
G1 X114.706 Y60.946 E.00268
G1 X114.769 Y60.947 E.00269
;WIDTH:0.508521
G1 X114.833 Y60.947 E.00245
;WIDTH:0.464043
G1 X114.896 Y60.948 E.00222
;WIDTH:0.420029
G1 X116.132 Y61.071 E.03894
G1 X118.567 Y61.439 E.07724
G1 X120.968 Y61.924 E.0768
G1 X123.356 Y62.532 E.07725
G1 X125.701 Y63.255 E.07695
M73 Q9 S12
G1 X128.011 Y64.096 E.0771
G1 X130.285 Y65.054 E.07739
G1 X132.492 Y66.117 E.0768
G1 X134.655 Y67.295 E.07723
G1 X136.957 Y68.716 E.08483
G1 X138.781 Y69.96 E.06922
G1 X140.741 Y71.444 E.0771
G1 X142.625 Y73.024 E.0771
G1 X144.434 Y74.703 E.07739
G1 X146.148 Y76.46 E.07695
M73 P10 R12
G1 X147.772 Y78.3 E.07695
G1 X149.308 Y80.226 E.07725
G1 X150.74 Y82.218 E.07695
G1 X152.079 Y84.291 E.07739
G1 X153.306 Y86.417 E.07695
G1 X154.43 Y88.609 E.07725
M73 Q10 S12
G1 X155.439 Y90.846 E.07695
G1 X156.336 Y93.13 E.07695
G1 X157.121 Y95.465 E.07724
G1 X157.785 Y97.828 E.07695
G1 X158.333 Y100.225 E.0771
G1 X158.76 Y102.646 E.0771
G1 X159.067 Y105.099 E.07753
;WIDTH:0.466353
G1 X159.068 Y105.166 E.00233
;WIDTH:0.512999
G1 X159.069 Y105.232 E.00259
;WIDTH:0.559645
G1 X159.069 Y105.238 E.00027
M204 S1000
G1 X159.126 Y105.701 F10800
M204 S800
;WIDTH:0.559456
G1 F1200
G1 X159.127 Y105.774 E.00313
;WIDTH:0.512884
G1 X159.128 Y105.847 E.00285
;WIDTH:0.466312
G1 X159.129 Y105.919 E.00257
;WIDTH:0.420032
G1 X159.25 Y107.542 E.05102
G1 X159.311 Y110 E.0771
G1 X159.25 Y112.453 E.07695
G1 X159.129 Y114.081 E.05117
;WIDTH:0.466377
G1 X159.119 Y114.162 E.00289
;WIDTH:0.513014
G1 X159.109 Y114.244 E.00321
;WIDTH:0.55965
G1 X159.098 Y114.325 E.00352
G1 X159.026 Y114.321 E.00313
;WIDTH:0.513064
G1 X158.953 Y114.316 E.00284
;WIDTH:0.466478
G1 X158.88 Y114.312 E.00256
;WIDTH:0.419999
G1 X114.877 Y114.311 E1.37969
;WIDTH:0.459047
G1 X114.83 Y114.311 E.00163
;WIDTH:0.498095
G1 X114.783 Y114.311 E.00178
;WIDTH:0.537143
G1 X114.736 Y114.311 E.00194
;WIDTH:0.576191
G1 X114.689 Y114.311 E.00209
G1 X114.689 Y114.264 E.00209
;WIDTH:0.537144
G1 X114.689 Y114.217 E.00194
;WIDTH:0.498096
G1 X114.689 Y114.17 E.00178
;WIDTH:0.459048
G1 X114.689 Y114.123 E.00163
;WIDTH:0.42
G1 X114.689 Y105.877 E.25854
;WIDTH:0.459048
G1 X114.689 Y105.83 E.00163
;WIDTH:0.498096
G1 X114.689 Y105.783 E.00178
;WIDTH:0.537144
G1 X114.689 Y105.736 E.00194
;WIDTH:0.576191
G1 X114.689 Y105.689 E.00209
G1 X114.736 Y105.689 E.00209
;WIDTH:0.537144
G1 X114.783 Y105.689 E.00194
;WIDTH:0.498096
G1 X114.83 Y105.689 E.00178
;WIDTH:0.459048
G1 X114.877 Y105.689 E.00163
;WIDTH:0.42
G1 X158.88 Y105.688 E1.3797
;WIDTH:0.46641
G1 X158.962 Y105.692 E.00288
;WIDTH:0.512933
G1 X159.044 Y105.697 E.0032
;WIDTH:0.559456
G1 X159.066 Y105.698 E.00094
M204 S1000
;WIPE_START
G1 F8640
G1 X159.127 Y105.774 E-.02248
G1 X159.128 Y105.847 E-.01683
G1 X159.129 Y105.919 E-.01683
G1 X159.25 Y107.542 E-.37571
G1 X159.306 Y109.785 E-.51814
;WIPE_END
G1 E-.05 F2100
G1 Z.6 F720
G1 X114.769 Y159.053 F10800
G1 Z.2 F720
G1 E1 F2100
M204 S800
;WIDTH:0.552999
G1 F1200
G1 X114.706 Y159.054 E.00268
G1 X114.7 Y158.991 E.00268
;WIDTH:0.508567
G1 X114.695 Y158.928 E.00245
;WIDTH:0.464135
G1 X114.689 Y158.865 E.00222
;WIDTH:0.42
G1 X114.689 Y114.877 E1.3792
;WIDTH:0.459048
M73 P11 R12
M73 Q11 S12
G1 X114.689 Y114.83 E.00163
;WIDTH:0.498096
G1 X114.689 Y114.783 E.00178
;WIDTH:0.537144
G1 X114.689 Y114.736 E.00194
;WIDTH:0.576191
G1 X114.689 Y114.689 E.00209
G1 X114.736 Y114.689 E.00209
;WIDTH:0.537143
G1 X114.783 Y114.689 E.00194
;WIDTH:0.498095
G1 X114.83 Y114.689 E.00178
;WIDTH:0.459047
G1 X114.877 Y114.689 E.00163
;WIDTH:0.419999
G1 X158.88 Y114.689 E1.37969
;WIDTH:0.466478
G1 X158.944 Y114.693 E.00223
;WIDTH:0.513064
G1 X159.007 Y114.698 E.00248
;WIDTH:0.55965
G1 X159.07 Y114.702 E.00272
G1 X159.069 Y114.768 E.00285
;WIDTH:0.513003
G1 X159.068 Y114.834 E.00259
;WIDTH:0.466355
G1 X159.067 Y114.901 E.00233
;WIDTH:0.420031
G1 X158.761 Y117.349 E.07739
G1 X158.333 Y119.775 E.07725
G1 X157.785 Y122.172 E.0771
G1 X157.121 Y124.535 E.07695
G1 X156.339 Y126.861 E.07695
G1 X155.441 Y129.15 E.0771
G1 X154.428 Y131.395 E.07725
G1 X153.304 Y133.587 E.07725
G1 X152.074 Y135.717 E.0771
G1 X150.743 Y137.778 E.07695
G1 X149.305 Y139.778 E.07725
G1 X147.775 Y141.697 E.07695
G1 X146.151 Y143.537 E.07695
G1 X144.431 Y145.3 E.07725
G1 X142.632 Y146.97 E.07695
G1 X140.741 Y148.556 E.07739
G1 X138.789 Y150.035 E.0768
G1 X136.962 Y151.281 E.06936
G1 X134.66 Y152.702 E.0848
G1 X132.496 Y153.881 E.07727
G1 X130.285 Y154.946 E.07695
G1 X128.02 Y155.901 E.0771
G1 X125.705 Y156.744 E.07725
G1 X123.351 Y157.469 E.07724
G1 X120.973 Y158.075 E.07695
G1 X118.558 Y158.563 E.07724
G1 X116.132 Y158.929 E.07695
G1 X114.896 Y159.052 E.03894
;WIDTH:0.464044
G1 X114.833 Y159.053 E.00222
;WIDTH:0.508522
G1 X114.829 Y159.053 E.00013
