; generated by PrusaSlicer 2.5.1+win64 on 2023-03-19 at 18:47:44 UTC


;
;

;
;
; 

; external perimeters extrusion width = 0.45mm
; perimeters extrusion width = 0.45mm
; infill extrusion width = 0.45mm
; solid infill extrusion width = 0.45mm
; top infill extrusion width = 0.40mm
; first layer extrusion width = 0.42mm

M73 P0 R10
M73 C4
M73 Q0 S10
M73 D4
M201 X1000 Y1000 Z200 E600 ; sets maximum accelerations, mm/sec^2
M203 X350 Y350 Z12 E120 ; sets maximum feedrates, mm / sec
M204 P1250 R1250 T1250 ; sets acceleration (P, T) and retract acceleration (R), mm/sec^2
M205 X8.00 Y8.00 Z0.40 E4.50 ; sets the jerk limits, mm/sec
M205 S0 T0 ; sets the minimum extruding and travel feed rate, mm/sec
M107
;TYPE:Custom
M190 S0 ; Prevents prusaslicer from prepending m190 to the gcode ruining our macro
M109 S0 ; Prevents prusaslicer from prepending m109 to the gcode ruining our macro

; Play a tune to always know you're using Escrich Klipper Phoenix 3D printer
M300 S440 P200
M300 S660 P250



START_PRINT EXTRUDER_TEMP=215 BED_TEMP=60


G21 ; set units to millimeters
G90 ; use absolute coordinates
M83 ; use relative distances for extrusion
M900 K0.05 ; Filament gcode LA 1.5
M900 K30 ; Filament gcode LA 1.0
M107
;LAYER_CHANGE
;Z:0.2
;HEIGHT:0.2
;BEFORE_LAYER_CHANGE
G92 E0.0
;0.2


G1 E-1 F2100
G1 Z.4 F720
;AFTER_LAYER_CHANGE
;0.2
G1 X103.344 Y102.342 F10800
G1 Z.2 F720
G1 E1 F2100
M204 S800
;TYPE:Skirt/Brim
;WIDTH:0.42
G1 F1200
G1 X105 Y101.869 E.054
G1 X115 Y101.869 E.31354
G1 X116.52 Y102.262 E.04923
G1 X117.658 Y103.344 E.04923
G1 X118.131 Y105 E.054
G1 X118.131 Y115 E.31354
G1 X117.738 Y116.52 E.04923
G1 X116.656 Y117.658 E.04923
G1 X115 Y118.131 E.054
G1 X105 Y118.131 E.31354
G1 X103.48 Y117.738 E.04923
G1 X102.342 Y116.656 E.04923
G1 X101.869 Y115 E.054
G1 X101.869 Y105 E.31354
G1 X102.262 Y103.48 E.04923
G1 X103.303 Y102.386 E.04735
M204 S1000
G1 X103.585 Y102.683 F10800
M204 S800
G1 F1200
G1 X103.705 Y102.569 E.00517
G1 X105 Y102.246 E.04186
G1 X115 Y102.246 E.31354
M73 P0 R9
G1 X116.417 Y102.639 E.04612
G1 X117.431 Y103.705 E.04612
G1 X117.754 Y105 E.04186
G1 X117.754 Y115 E.31354
G1 X117.361 Y116.417 E.04612
G1 X116.295 Y117.431 E.04612
G1 X115 Y117.754 E.04186
M73 Q0 S9
G1 X105 Y117.754 E.31354
M73 P1 R9
M73 Q1 S9
G1 X103.583 Y117.361 E.04612
G1 X102.569 Y116.295 E.04612
G1 X102.246 Y115 E.04186
G1 X102.246 Y105 E.31354
G1 X102.639 Y103.583 E.04612
G1 X103.542 Y102.724 E.03907
M204 S1000
G1 X103.801 Y103.034 F10800
M204 S800
G1 F1200
G1 X104.06 Y102.817 E.0106
G1 X105 Y102.623 E.03008
G1 X115 Y102.623 E.31354
G1 X116.307 Y103.015 E.04278
G1 X117.183 Y104.06 E.04278
G1 X117.377 Y105 E.03008
G1 X117.377 Y115 E.31354
G1 X116.985 Y116.307 E.04278
G1 X115.94 Y117.183 E.04278
G1 X115 Y117.377 E.03008
G1 X105 Y117.377 E.31354
G1 X103.693 Y116.985 E.04278
G1 X102.817 Y115.94 E.04278
G1 X102.623 Y115 E.03008
G1 X102.623 Y105 E.31354
G1 X103.015 Y103.693 E.04278
G1 X103.755 Y103.072 E.0303
M204 S1000
; printing object Cubo de prueba cambio de color.obj id:0 copy 0
;WIPE_START
G1 F8640
G1 X104.06 Y102.817 E-.09192
G1 X105 Y102.623 E-.22155
G1 X107.757 Y102.623 E-.63653
;WIPE_END
G1 E-.05 F2100
G1 Z.6 F720
G1 X111.639 Y105.795 F10800
G1 Z.2 F720
G1 E1 F2100
M204 S800
;TYPE:Perimeter
;WIDTH:0.466966
G1 F1200
G1 X111.88 Y105.787 E.00849
;WIDTH:0.419999
G1 X114.213 Y105.787 E.07314
G1 X114.213 Y106.693 E.0284
G1 X114.213 Y108.343 E.05174
;WIDTH:0.451899
G1 X114.197 Y108.781 E.0149
;WIDTH:0.483798
G1 X114.181 Y109.219 E.01606
G1 X114.2 Y110.084 E.03174
;WIDTH:0.466221
G1 X114.19 Y110.96 E.03083
G1 X114.213 Y111.657 E.02454
;WIDTH:0.419999
G1 X114.213 Y114.213 E.08014
G1 X111.88 Y114.213 E.07314
;WIDTH:0.464005
G1 X111.439 Y114.191 E.01545
;WIDTH:0.50801
G1 X110.998 Y114.169 E.01707
G1 X110.565 Y114.184 E.01676
;WIDTH:0.477337
G1 X110.132 Y114.2 E.01565
;WIDTH:0.479789
G1 X109.261 Y114.183 E.03166
G1 X108.912 Y114.198 E.01267
;WIDTH:0.449894
G1 X108.564 Y114.213 E.0118
;WIDTH:0.419999
G1 X105.787 Y114.213 E.08707
G1 X105.787 Y111.217 E.09395
;WIDTH:0.453174
G1 X105.804 Y110.348 E.02962
;WIDTH:0.462486
G1 X105.808 Y109.48 E.03029
G1 X105.787 Y108.783 E.02432
;WIDTH:0.419999
G1 X105.787 Y105.787 E.09395
G1 X108.564 Y105.787 E.08707
;WIDTH:0.465548
G1 X109.435 Y105.81 E.03063
M73 Q2 S9
G1 X110.302 Y105.803 E.03044
;WIDTH:0.466966
G1 X111.579 Y105.797 E.04506
M204 S1000
;WIPE_START
G1 F8640
G1 X111.88 Y105.787 E-.06946
G1 X114.213 Y105.787 E-.53865
M73 P2 R9
G1 X114.213 Y106.693 E-.20915
G1 X114.213 Y107.268 E-.13274
;WIPE_END
G1 E-.05 F2100
G1 Z.6 F720
G1 X114.59 Y114.59 F10800
G1 Z.2 F720
G1 E1 F2100
M204 S800
;TYPE:External perimeter
;WIDTH:0.419999
G1 F1200
G1 X105.41 Y114.59 E.28783
G1 X105.41 Y105.41 E.28783
G1 X114.59 Y105.41 E.28783
G1 X114.59 Y114.53 E.28595
M204 S1000
G1 X114.204 Y114.486 F10800
;WIPE_START
G1 F8640
G1 X110.476 Y114.557 E-.95
;WIPE_END
G1 E-.05 F2100
G1 Z.6 F720
G1 X111.775 Y106.664 F10800
G1 Z.2 F720
G1 E1 F2100
M204 S800
;TYPE:Perimeter
G1 F1200
G1 X112.404 Y107.076 E.02356
G1 X112.976 Y107.661 E.02567
G1 X113.41 Y108.355 E.02567
;WIDTH:0.455082
G1 X113.7 Y109.121 E.02807
;WIDTH:0.483798
G1 X113.741 Y109.243 E.00471
G1 X113.798 Y109.937 E.02556
;WIDTH:0.446015
G1 X113.8 Y110 E.0021
;WIDTH:0.483798
G1 X113.741 Y110.757 E.02785
G1 X113.601 Y111.146 E.01513
;WIDTH:0.451899
G1 X113.461 Y111.534 E.01404
;WIDTH:0.419999
G1 X113.05 Y112.242 E.02567
G1 X112.65 Y112.684 E.01871
G1 X112.404 Y112.924 E.01077
G1 X111.827 Y113.316 E.02185
;WIDTH:0.469481
G1 X111.081 Y113.654 E.02906
;WIDTH:0.50801
G1 X110.961 Y113.707 E.00507
G1 X110.615 Y113.749 E.01349
;WIDTH:0.479637
G1 X110.269 Y113.792 E.01266
;WIDTH:0.465541
G1 X109.447 Y113.768 E.02889
G1 X108.656 Y113.539 E.02894
;WIDTH:0.419999
G1 X107.926 Y113.167 E.02567
G1 X107.294 Y112.647 E.02567
G1 X106.788 Y112.004 E.02567
G1 X106.433 Y111.267 E.02567
;WIDTH:0.455778
G1 X106.226 Y110.474 E.02812
G1 X106.214 Y109.652 E.02823
;WIDTH:0.453174
G1 X106.394 Y108.849 E.02804
;WIDTH:0.419999
G1 X106.725 Y108.101 E.02567
G1 X107.21 Y107.441 E.02567
G1 X107.825 Y106.901 E.02567
G1 X108.542 Y106.506 E.02567
;WIDTH:0.460924
G1 X109.322 Y106.255 E.02847
G1 X110.143 Y106.204 E.0286
;WIDTH:0.477337
G1 X110.552 Y106.248 E.01486
;WIDTH:0.50801
G1 X110.961 Y106.293 E.0159
G1 X111.34 Y106.46 E.01602
;WIDTH:0.464005
G1 X111.719 Y106.627 E.0145
;WIDTH:0.419999
G1 X111.725 Y106.631 E.00022
M204 S1000
G1 X111.561 Y106.97 F10800
M204 S800
;TYPE:External perimeter
G1 F1200
G1 X112.192 Y107.388 E.02372
G1 X112.703 Y107.92 E.02312
G1 X113.086 Y108.55 E.02312
G1 X113.326 Y109.247 E.02312
G1 X113.411 Y110 E.02376
G1 X113.335 Y110.713 E.02249
G1 X113.104 Y111.413 E.02312
G1 X112.727 Y112.048 E.02312
G1 X112.376 Y112.425 E.01617
G1 X112.192 Y112.612 E.00823
G1 X111.615 Y113.003 E.02185
G1 X110.932 Y113.28 E.02312
G1 X110.205 Y113.404 E.02312
G1 X109.468 Y113.369 E.02312
G1 X108.757 Y113.176 E.02312
G1 X108.103 Y112.834 E.02312
G1 X107.538 Y112.36 E.02312
G1 X107.088 Y111.776 E.02312
G1 X106.775 Y111.108 E.02312
G1 X106.612 Y110.389 E.02312
G1 X106.608 Y109.652 E.02312
G1 X106.762 Y108.93 E.02312
G1 X107.067 Y108.259 E.02312
G1 X107.51 Y107.67 E.02312
G1 X108.069 Y107.189 E.02312
G1 X108.719 Y106.84 E.02312
G1 X109.428 Y106.638 E.02312
G1 X110.164 Y106.594 E.02312
G1 X110.893 Y106.709 E.02312
G1 X111.505 Y106.948 E.02062
M204 S1000
G1 X111.898 Y106.755 F10800
;WIPE_START
G1 F8640
G1 X112.192 Y107.388 E-.18828
G1 X112.703 Y107.92 E-.17028
G1 X113.086 Y108.55 E-.17027
G1 X113.326 Y109.247 E-.17027
G1 X113.411 Y110 E-.17498
G1 X113.376 Y110.327 E-.07591
;WIPE_END
G1 E-.05 F2100
G1 Z.6 F720
G1 X114.043 Y106.73 F10800
G1 Z.2 F720
G1 E1 F2100
M204 S800
;TYPE:Solid infill
;WIDTH:0.425018
G1 F1200
G1 X113.44 Y106.126 E.0271
G1 X112.9 Y106.126 E.01717
G1 X113.874 Y107.1 E.04376
G1 X113.874 Y107.641 E.01717
M73 Q3 S9
G1 X112.359 Y106.126 E.06804
G1 X111.823 Y106.131 E.01704
G1 X114.043 Y108.35 E.09974
M204 S1000
;WIPE_START
M73 P3 R9
G1 F8640
G1 X111.823 Y106.131 E-.72486
G1 X112.359 Y106.126 E-.12381
G1 X112.67 Y106.437 E-.10133
;WIPE_END
G1 E-.05 F2100
G1 Z.6 F720
G1 X114.043 Y112.019 F10800
G1 Z.2 F720
G1 E1 F2100
M204 S800
;WIDTH:0.441181
G1 F1200
G1 X113.744 Y111.72 E.014
G1 X113.543 Y112.082 E.01371
G1 X113.874 Y112.413 E.0155
G1 X113.874 Y112.976 E.01865
G1 X113.33 Y112.433 E.02545
G1 X113.069 Y112.735 E.01322
G1 X113.874 Y113.539 E.03767
G1 X113.874 Y113.874 E.01107
G1 X113.645 Y113.874 E.00758
G1 X112.795 Y113.024 E.03979
G1 X112.601 Y113.201 E.00869
G1 X112.486 Y113.278 E.00459
G1 X113.082 Y113.874 E.02787
G1 X112.518 Y113.874 E.01865
G1 X112.151 Y113.506 E.01721
G1 X112.009 Y113.602 E.00566
G1 X111.792 Y113.711 E.00804
G1 X112.125 Y114.043 E.01557
M204 S1000
;WIPE_START
G1 F8640
G1 X111.792 Y113.711 E-.10857
G1 X112.009 Y113.602 E-.05605
G1 X112.151 Y113.506 E-.03947
G1 X112.518 Y113.874 E-.12003
G1 X113.082 Y113.874 E-.13005
G1 X112.486 Y113.278 E-.19435
G1 X112.601 Y113.201 E-.03198
G1 X112.795 Y113.024 E-.06062
G1 X113.435 Y113.664 E-.20888
;WIPE_END
G1 E-.05 F2100
G1 Z.6 F720
G1 X105.957 Y111.586 F10800
G1 Z.2 F720
G1 E1 F2100
M204 S800
;WIDTH:0.434936
G1 F1200
G1 X108.244 Y113.874 E.10544
G1 X107.69 Y113.874 E.01807
G1 X106.126 Y112.31 E.07206
G1 X106.126 Y112.865 E.01807
G1 X107.135 Y113.874 E.04651
G1 X106.581 Y113.874 E.01807
G1 X105.957 Y113.249 E.02877
M204 S1000
;WIPE_START
G1 F8640
G1 X106.581 Y113.874 E-.20381
G1 X107.135 Y113.874 E-.12801
G1 X106.126 Y112.865 E-.32943
G1 X106.126 Y112.31 E-.12801
G1 X106.619 Y112.803 E-.16073
;WIPE_END
G1 E-.05 F2100
G1 Z.6 F720
G1 X108.102 Y105.957 F10800
G1 Z.2 F720
G1 E1 F2100
M204 S800
;WIDTH:0.427137
G1 F1200
G1 X108.363 Y106.217 E.01178
G1 X108.008 Y106.406 E.01284
G1 X107.728 Y106.126 E.01262
G1 X107.185 Y106.126 E.01736
G1 X107.662 Y106.603 E.02155
G1 X107.364 Y106.848 E.01233
G1 X106.642 Y106.126 E.03262
G1 X106.126 Y106.126 E.01646
G1 X106.126 Y106.155 E.0009
G1 X107.07 Y107.098 E.04263
G1 X106.827 Y107.399 E.01234
G1 X106.126 Y106.698 E.03165
G1 X106.126 Y107.241 E.01736
G1 X106.588 Y107.703 E.02084
G1 X106.514 Y107.796 E.00381
G1 X106.38 Y108.039 E.00884
G1 X106.126 Y107.785 E.01147
G1 X106.126 Y108.328 E.01736
G1 X106.336 Y108.538 E.00948
M204 S1000
; stop printing object Cubo de prueba cambio de color.obj id:0 copy 0
M106 S84.15
;LAYER_CHANGE
;Z:0.4
;HEIGHT:0.2
;BEFORE_LAYER_CHANGE
G92 E0.0
;0.4


;WIPE_START
G1 F8640
G1 X106.126 Y108.328 E-.06849
G1 X106.126 Y107.785 E-.12546
G1 X106.38 Y108.039 E-.08287
G1 X106.514 Y107.796 E-.06389
G1 X106.588 Y107.703 E-.02754
G1 X106.126 Y107.241 E-.15059
G1 X106.126 Y106.698 E-.12546
G1 X106.827 Y107.399 E-.22875
G1 X107.036 Y107.139 E-.07696
;WIPE_END
G1 E-.05 F2100
G1 Z.6 F720
;AFTER_LAYER_CHANGE
;0.4
M104 S210 ; set temperature
M140 S60 ; set bed temperature
G1 X101.869 Y107.139 F10800
G1 Z.4 F720
G1 E1 F2100
;TYPE:Skirt/Brim
;WIDTH:0.42
G1 F3000
G1 X101.869 Y105 E.06708
G1 X102.262 Y103.48 E.04923
G1 X103.344 Y102.342 E.04923
G1 X105 Y101.869 E.054
G1 X115 Y101.869 E.31354
G1 X116.52 Y102.262 E.04923
G1 X117.658 Y103.344 E.04923
G1 X118.131 Y105 E.054
G1 X118.131 Y115 E.31354
G1 X117.738 Y116.52 E.04923
G1 X116.656 Y117.658 E.04923
G1 X115 Y118.131 E.054
G1 X105 Y118.131 E.31354
G1 X103.48 Y117.738 E.04923
G1 X102.342 Y116.656 E.04923
G1 X101.869 Y115 E.054
G1 X101.869 Y107.199 E.24458
G1 X102.246 Y107.199 F10800
G1 F3000
G1 X102.246 Y105 E.06896
G1 X102.639 Y103.583 E.04612
G1 X103.705 Y102.569 E.04612
G1 X105 Y102.246 E.04186
G1 X115 Y102.246 E.31354
M73 Q4 S9
G1 X116.417 Y102.639 E.04612
G1 X117.431 Y103.705 E.04612
M73 P4 R9
G1 X117.754 Y105 E.04186
G1 X117.754 Y115 E.31354
G1 X117.361 Y116.417 E.04612
G1 X116.295 Y117.431 E.04612
G1 X115 Y117.754 E.04186
G1 X105 Y117.754 E.31354
G1 X103.583 Y117.361 E.04612
G1 X102.569 Y116.295 E.04612
G1 X102.246 Y115 E.04186
G1 X102.246 Y107.259 E.2427
G1 X102.623 Y107.259 F10800
G1 F3000
G1 X102.623 Y105 E.07084
G1 X103.015 Y103.693 E.04278
G1 X104.06 Y102.817 E.04278
G1 X105 Y102.623 E.03008
G1 X115 Y102.623 E.31354
G1 X116.307 Y103.015 E.04278
G1 X117.183 Y104.06 E.04278
G1 X117.377 Y105 E.03008
G1 X117.377 Y115 E.31354
G1 X116.985 Y116.307 E.04278
G1 X115.94 Y117.183 E.04278
G1 X115 Y117.377 E.03008
G1 X105 Y117.377 E.31354
G1 X103.693 Y116.985 E.04278
G1 X102.817 Y115.94 E.04278
G1 X102.623 Y115 E.03008
G1 X102.623 Y107.319 E.24082
; printing object Cubo de prueba cambio de color.obj id:0 copy 0
;WIPE_START
G1 F8640
G1 X102.623 Y105 E-.53555
G1 X103.015 Y103.693 E-.31505
G1 X103.344 Y103.416 E-.0994
;WIPE_END
G1 E-.05 F2100
G1 Z.8 F720
G1 X114.368 Y114.368 F10800
G1 Z.4 F720
G1 E1 F2100
M204 S800
;TYPE:Perimeter
;WIDTH:0.449999
G1 F1500
G1 X105.632 Y114.368 E.2957
G1 X105.632 Y111.195 E.10741
;WIDTH:0.493293
G1 X105.654 Y110.978 E.00817
;WIDTH:0.536587
G1 X105.675 Y110.761 E.00895
;WIDTH:0.579881
G1 X105.697 Y110.544 E.00974
;WIDTH:0.623174
G1 X105.719 Y110.327 E.01052
;WIDTH:0.634852
G1 X105.725 Y109.459 E.04273
G1 X105.701 Y109.295 E.00812
;WIDTH:0.588639
G1 X105.678 Y109.132 E.00749
;WIDTH:0.542426
G1 X105.655 Y108.969 E.00685
;WIDTH:0.496213
G1 X105.632 Y108.805 E.00622
;WIDTH:0.449999
G1 X105.632 Y105.632 E.10741
G1 X108.593 Y105.632 E.10021
;WIDTH:0.496106
G1 X108.814 Y105.655 E.00837
;WIDTH:0.542212
G1 X109.035 Y105.678 E.00922
;WIDTH:0.588318
G1 X109.256 Y105.701 E.01008
;WIDTH:0.634424
G1 X109.477 Y105.724 E.01093
;WIDTH:0.640602
G1 X110.539 Y105.727 E.0528
G1 X110.639 Y105.704 E.00509
;WIDTH:0.592952
G1 X110.738 Y105.68 E.00469
;WIDTH:0.545301
G1 X110.838 Y105.656 E.00428
;WIDTH:0.49765
G1 X110.938 Y105.632 E.00387
;WIDTH:0.449999
G1 X114.368 Y105.632 E.11611
G1 X114.368 Y106.693 E.03591
G1 X114.368 Y114.308 E.25776
M204 S1000
G1 X114.775 Y114.775 F10800
M204 S800
;TYPE:External perimeter
G1 F1500
G1 X105.225 Y114.775 E.32326
G1 X105.225 Y105.225 E.32326
G1 X114.775 Y105.225 E.32326
G1 X114.775 Y114.715 E.32122
M204 S1000
M73 Q5 S9
G1 X114.389 Y114.671 F10800
;WIPE_START
G1 F8640
G1 X110.661 Y114.741 E-.95
;WIPE_END
M73 P5 R9
G1 E-.05 F2100
G1 Z.8 F720
G1 X111.703 Y106.804 F10800
G1 Z.4 F720
G1 E1 F2100
M204 S800
;TYPE:Perimeter
G1 F1500
G1 X112.299 Y107.192 E.02406
G1 X112.849 Y107.751 E.02656
G1 X113.266 Y108.416 E.02656
G1 X113.53 Y109.155 E.02656
G1 X113.629 Y109.934 E.02656
G1 X113.558 Y110.716 E.02656
G1 X113.321 Y111.464 E.02656
G1 X112.929 Y112.143 E.02656
G1 X112.537 Y112.578 E.01979
G1 X112.299 Y112.808 E.01122
G1 X111.758 Y113.175 E.02212
G1 X111.034 Y113.479 E.02656
G1 X110.262 Y113.62 E.02656
G1 X109.478 Y113.592 E.02656
G1 X108.718 Y113.395 E.02657
G1 X108 Y113.026 E.02733
G1 X107.411 Y112.543 E.02578
G1 X106.925 Y111.927 E.02656
G1 X106.582 Y111.221 E.02656
;WIDTH:0.490299
G1 X106.517 Y111.035 E.00735
;WIDTH:0.530599
G1 X106.452 Y110.848 E.00801
;WIDTH:0.570899
G1 X106.386 Y110.662 E.00867
;WIDTH:0.611199
G1 X106.321 Y110.475 E.00934
;WIDTH:0.623174
G1 X106.299 Y109.673 E.03871
;WIDTH:0.634852
G1 X106.31 Y109.522 E.00746
G1 X106.367 Y109.368 E.00812
;WIDTH:0.588639
G1 X106.425 Y109.213 E.00749
;WIDTH:0.542426
G1 X106.483 Y109.058 E.00685
;WIDTH:0.496213
G1 X106.54 Y108.904 E.00622
;WIDTH:0.449999
G1 X106.857 Y108.186 E.02656
G1 X107.32 Y107.553 E.02656
G1 X107.909 Y107.034 E.02656
G1 X108.596 Y106.653 E.02657
;WIDTH:0.499027
G1 X108.848 Y106.555 E.01027
;WIDTH:0.548055
G1 X109.1 Y106.456 E.01137
;WIDTH:0.597082
G1 X109.352 Y106.357 E.01248
;WIDTH:0.634424
G1 X109.493 Y106.315 E.00722
G1 X110.126 Y106.29 E.03118
;WIDTH:0.617253
G1 X110.164 Y106.289 E.0018
;WIDTH:0.640602
G1 X110.491 Y106.321 E.01633
G1 X110.627 Y106.371 E.0072
;WIDTH:0.592952
G1 X110.763 Y106.421 E.00662
;WIDTH:0.545301
G1 X110.898 Y106.471 E.00605
;WIDTH:0.49765
G1 X111.034 Y106.521 E.00548
;WIDTH:0.449999
G1 X111.653 Y106.771 E.02258
M204 S1000
G1 X111.491 Y107.141 F10800
M204 S800
;TYPE:External perimeter
G1 F1500
G1 X112.07 Y107.529 E.0236
G1 X112.553 Y108.031 E.0236
G1 X112.917 Y108.626 E.0236
G1 X113.144 Y109.285 E.0236
G1 X113.224 Y109.978 E.0236
G1 X113.153 Y110.672 E.0236
G1 X112.935 Y111.334 E.0236
G1 X112.58 Y111.934 E.0236
G1 X112.104 Y112.443 E.0236
G1 X111.53 Y112.838 E.0236
G1 X110.884 Y113.101 E.0236
