; generated by PrusaSlicer 2.5.0+win64 on 2023-03-09 at 11:53:56 UTC


;
;

;
;
; 

; external perimeters extrusion width = 0.60mm
; perimeters extrusion width = 0.50mm
; infill extrusion width = 0.50mm
; solid infill extrusion width = 0.50mm
; top infill extrusion width = 0.45mm
; first layer extrusion width = 0.42mm

M73 P0 R76
M73 Q0 S77
M201 X1000 Y1000 Z200 E5000 ; sets maximum accelerations, mm/sec^2
M203 X350 Y350 Z12 E120 ; sets maximum feedrates, mm / sec
M204 P1250 R1250 T1250 ; sets acceleration (P, T) and retract acceleration (R), mm/sec^2
M205 X8.00 Y8.00 Z0.40 E4.50 ; sets the jerk limits, mm/sec
M205 S0 T0 ; sets the minimum extruding and travel feed rate, mm/sec
M107
;TYPE:Custom
M190 S0 ; Prevents prusaslicer from prepending m190 to the gcode ruining our macro
M109 S0 ; Prevents prusaslicer from prepending m109 to the gcode ruining our macro
START_PRINT EXTRUDER_TEMP=215 BED_TEMP=60
SET_VELOCITY_LIMIT SQUARE_CORNER_VELOCITY=1 ACCEL=500
TUNING_TOWER COMMAND=SET_PRESSURE_ADVANCE PARAMETER=ADVANCE START=0 FACTOR=.005


G21 ; set units to millimeters
G90 ; use absolute coordinates
M83 ; use relative distances for extrusion
M900 K0.05 ; Filament gcode LA 1.5
M900 K30 ; Filament gcode LA 1.0
M107
;LAYER_CHANGE
;Z:0.2
;HEIGHT:0.2
;BEFORE_LAYER_CHANGE
G92 E0.0
;0.2


G1 E-1 F2100
G1 Z.4 F720
;AFTER_LAYER_CHANGE
;0.2
G1 X76.888 Y76.694 F10800
G1 Z.2 F720
G1 E1 F2100
M204 S800
;TYPE:Skirt/Brim
;WIDTH:0.42
G1 F1200
G1 X78.103 Y75.747 E.0483
G1 X78.653 Y75.445 E.01966
G1 X79.961 Y74.92 E.0442
G1 X81.477 Y74.65 E.0483
G1 X138.523 Y74.65 E1.78861
G1 X139.017 Y74.702 E.01558
G1 X140.039 Y74.92 E.03278
G1 X141.467 Y75.498 E.0483
G1 X142.743 Y76.361 E.0483
G1 X143.112 Y76.694 E.01558
G1 X143.812 Y77.471 E.03277
G1 X144.626 Y78.778 E.0483
G1 X145.151 Y80.226 E.0483
G1 X145.364 Y81.751 E.04829
G1 X145.377 Y138 E1.76363
G1 X145.255 Y139.288 E.04057
G1 X144.828 Y140.768 E.0483
G1 X144.104 Y142.127 E.04829
G1 X143.112 Y143.306 E.0483
G1 X141.897 Y144.253 E.0483
G1 X140.512 Y144.927 E.04829
G1 X140.039 Y145.08 E.01559
G1 X138.523 Y145.35 E.0483
G1 X81.477 Y145.35 E1.78861
G1 X79.961 Y145.08 E.0483
G1 X79.488 Y144.927 E.01559
G1 X78.103 Y144.253 E.0483
G1 X76.888 Y143.306 E.0483
G1 X75.896 Y142.128 E.0483
G1 X75.172 Y140.768 E.0483
G1 X74.745 Y139.288 E.0483
G1 X74.623 Y138 E.04057
G1 X74.623 Y82 E1.75584
G1 X74.745 Y80.712 E.04057
G1 X75.172 Y79.232 E.0483
G1 X75.896 Y77.873 E.0483
G1 X76.849 Y76.74 E.04642
M204 S1000
; printing object square_tower.stl id:0 copy 0
;WIPE_START
G1 F8640
G1 X78.103 Y75.747 E-.36924
G1 X78.653 Y75.445 E-.14478
G1 X79.961 Y74.92 E-.32553
G1 X80.432 Y74.836 E-.11044
;WIPE_END
G1 E-.05 F2100
G1 Z.6 F720
G1 X139.483 Y134.058 F10800
G1 Z.2 F720
G1 E1 F2100
M204 S800
;TYPE:Perimeter
;WIDTH:0.419999
G1 F1200
G1 X139.548 Y134.108 E.0026
G1 X140.104 Y134.355 E.01908
G1 X140.816 Y134.872 E.02759
G1 X141.405 Y135.526 E.02759
G1 X141.845 Y136.288 E.02759
G1 X142.117 Y137.125 E.02759
G1 X142.209 Y138 E.02759
G1 X142.117 Y138.875 E.02759
G1 X141.845 Y139.712 E.02759
G1 X141.405 Y140.474 E.02759
G1 X140.816 Y141.128 E.02759
G1 X140.104 Y141.645 E.02759
G1 X139.301 Y142.003 E.02759
G1 X138.44 Y142.186 E.02759
G1 X137.56 Y142.186 E.02758
G1 X136.699 Y142.003 E.02759
G1 X135.896 Y141.645 E.02759
G1 X135.184 Y141.128 E.02759
G1 X134.595 Y140.474 E.02759
G1 X134.12 Y139.603 E.03111
G1 X133.942 Y139.343 E.00988
G1 X133.779 Y139.248 E.00591
G1 X133.582 Y139.213 E.00628
G1 X86.418 Y139.213 E1.4788
M73 Q0 S76
G1 X86.32 Y139.221 E.00308
G1 X86.057 Y139.343 E.00907
G1 X85.947 Y139.465 E.00516
G1 X85.845 Y139.712 E.00839
G1 X85.405 Y140.474 E.02758
G1 X84.816 Y141.128 E.02759
G1 X84.104 Y141.645 E.02759
G1 X83.301 Y142.003 E.02759
G1 X82.44 Y142.186 E.02759
G1 X81.56 Y142.186 E.02759
G1 X80.699 Y142.003 E.02759
G1 X79.896 Y141.645 E.02759
G1 X79.184 Y141.128 E.02759
G1 X78.595 Y140.474 E.02759
G1 X78.155 Y139.712 E.02759
G1 X77.883 Y138.875 E.02759
G1 X77.791 Y138 E.02759
G1 X77.883 Y137.125 E.02759
G1 X78.155 Y136.288 E.02759
G1 X78.595 Y135.526 E.02759
G1 X79.184 Y134.872 E.02759
G1 X79.896 Y134.355 E.02759
G1 X80.452 Y134.108 E.01908
G1 X80.659 Y133.95 E.00817
G1 X80.752 Y133.787 E.00588
G1 X80.787 Y133.591 E.00625
G1 X80.787 Y86.409 E1.47936
G1 X80.752 Y86.213 E.00625
G1 X80.659 Y86.05 E.00588
G1 X80.452 Y85.892 E.00817
G1 X79.896 Y85.645 E.01908
G1 X79.184 Y85.128 E.02759
M73 P0 R75
G1 X78.595 Y84.474 E.02759
G1 X78.155 Y83.712 E.02759
G1 X77.883 Y82.875 E.02759
G1 X77.791 Y82 E.02759
G1 X77.883 Y81.125 E.02759
G1 X78.155 Y80.288 E.02759
G1 X78.595 Y79.526 E.02759
G1 X79.184 Y78.872 E.02759
G1 X79.896 Y78.355 E.02759
G1 X80.699 Y77.997 E.02759
G1 X81.56 Y77.814 E.02759
G1 X82.44 Y77.814 E.02759
G1 X83.301 Y77.997 E.02759
G1 X84.104 Y78.355 E.02759
G1 X84.816 Y78.872 E.02759
G1 X85.405 Y79.526 E.02759
G1 X85.88 Y80.396 E.03108
G1 X86.057 Y80.657 E.00991
G1 X86.221 Y80.752 E.00591
G1 X86.418 Y80.787 E.00628
G1 X133.582 Y80.787 E1.4788
G1 X133.68 Y80.779 E.00308
G1 X133.942 Y80.657 E.00907
G1 X134.052 Y80.535 E.00516
G1 X134.155 Y80.289 E.00837
G1 X134.595 Y79.526 E.02761
G1 X135.184 Y78.872 E.02759
G1 X135.896 Y78.355 E.02759
G1 X136.699 Y77.997 E.02759
G1 X137.56 Y77.814 E.02759
G1 X138.44 Y77.814 E.02758
G1 X139.301 Y77.997 E.02759
G1 X140.104 Y78.355 E.02759
G1 X140.816 Y78.872 E.02759
G1 X141.405 Y79.526 E.02759
G1 X141.845 Y80.288 E.02759
G1 X142.117 Y81.125 E.02759
G1 X142.209 Y82 E.02759
G1 X142.117 Y82.875 E.02759
G1 X141.845 Y83.712 E.02759
G1 X141.405 Y84.474 E.02759
G1 X140.816 Y85.128 E.02758
G1 X140.104 Y85.645 E.02759
G1 X139.548 Y85.892 E.01908
G1 X139.341 Y86.05 E.00817
G1 X139.248 Y86.213 E.00588
G1 X139.213 Y86.409 E.00625
G1 X139.213 Y133.591 E1.47936
G1 X139.221 Y133.689 E.00308
G1 X139.341 Y133.95 E.00901
G1 X139.435 Y134.021 E.00369
M204 S1000
G1 X139.702 Y133.763 F10800
M204 S800
;TYPE:External perimeter
G1 F1200
G1 X140.294 Y134.027 E.02032
G1 X141.07 Y134.591 E.03007
G1 X141.712 Y135.303 E.03007
G1 X142.191 Y136.134 E.03007
G1 X142.487 Y137.046 E.03007
G1 X142.588 Y138 E.03007
G1 X142.487 Y138.954 E.03007
G1 X142.191 Y139.866 E.03007
G1 X141.712 Y140.697 E.03007
G1 X141.07 Y141.409 E.03007
G1 X140.294 Y141.973 E.03007
G1 X139.418 Y142.363 E.03007
G1 X138.48 Y142.563 E.03007
G1 X137.52 Y142.563 E.03007
G1 X136.582 Y142.363 E.03007
G1 X135.706 Y141.973 E.03007
G1 X134.93 Y141.409 E.03007
G1 X134.288 Y140.697 E.03007
G1 X133.968 Y140.142 E.02006
G1 X133.702 Y139.633 E.01802
G1 X133.582 Y139.59 E.004
G1 X86.418 Y139.59 E1.4788
G1 X86.298 Y139.633 E.004
G1 X86.191 Y139.866 E.00803
G1 X85.712 Y140.697 E.03007
G1 X85.07 Y141.409 E.03007
G1 X84.294 Y141.973 E.03007
G1 X83.418 Y142.363 E.03007
G1 X82.48 Y142.563 E.03007
G1 X81.52 Y142.563 E.03007
G1 X80.582 Y142.363 E.03007
G1 X79.706 Y141.973 E.03007
G1 X78.93 Y141.409 E.03007
G1 X78.288 Y140.697 E.03007
G1 X77.809 Y139.866 E.03007
G1 X77.513 Y138.954 E.03007
G1 X77.412 Y138 E.03007
G1 X77.513 Y137.046 E.03007
G1 X77.809 Y136.134 E.03007
G1 X78.288 Y135.303 E.03007
G1 X78.93 Y134.591 E.03007
G1 X79.706 Y134.027 E.03007
G1 X80.367 Y133.711 E.02298
G1 X80.41 Y133.591 E.00398
G1 X80.41 Y86.409 E1.47936
G1 X80.398 Y86.344 E.00208
G1 X80.298 Y86.237 E.00459
G1 X79.706 Y85.973 E.02032
G1 X78.93 Y85.409 E.03007
G1 X78.288 Y84.697 E.03007
G1 X77.809 Y83.866 E.03007
G1 X77.513 Y82.954 E.03007
G1 X77.412 Y82 E.03007
G1 X77.513 Y81.046 E.03007
G1 X77.809 Y80.134 E.03007
G1 X78.288 Y79.303 E.03007
G1 X78.93 Y78.591 E.03007
G1 X79.706 Y78.027 E.03007
G1 X80.582 Y77.637 E.03007
G1 X81.52 Y77.437 E.03007
G1 X82.48 Y77.437 E.03007
G1 X83.418 Y77.637 E.03007
G1 X84.294 Y78.027 E.03007
G1 X85.07 Y78.591 E.03007
G1 X85.712 Y79.303 E.03007
G1 X86.03 Y79.856 E.01999
G1 X86.298 Y80.367 E.01808
G1 X86.418 Y80.41 E.004
G1 X133.582 Y80.41 E1.4788
G1 X133.702 Y80.367 E.004
G1 X133.809 Y80.134 E.00802
G1 X134.288 Y79.303 E.03008
G1 X134.93 Y78.591 E.03007
G1 X135.706 Y78.027 E.03007
G1 X136.582 Y77.637 E.03007
G1 X137.52 Y77.437 E.03007
G1 X138.48 Y77.437 E.03007
G1 X139.418 Y77.637 E.03007
G1 X140.294 Y78.027 E.03007
G1 X141.07 Y78.591 E.03007
G1 X141.712 Y79.303 E.03007
G1 X142.191 Y80.134 E.03007
G1 X142.487 Y81.046 E.03007
G1 X142.588 Y82 E.03007
G1 X142.487 Y82.954 E.03007
G1 X142.191 Y83.866 E.03007
G1 X141.712 Y84.697 E.03007
G1 X141.07 Y85.409 E.03007
G1 X140.294 Y85.973 E.03007
G1 X139.633 Y86.289 E.02298
G1 X139.59 Y86.409 E.00398
G1 X139.59 Y133.591 E1.47936
G1 X139.602 Y133.656 E.00208
G1 X139.661 Y133.72 E.00271
M204 S1000
G1 X139.667 Y134.162 F10800
;WIPE_START
G1 F8640
G1 X140.294 Y134.027 E-.16249
G1 X141.07 Y134.591 E-.22146
G1 X141.712 Y135.303 E-.22145
G1 X142.191 Y136.134 E-.22145
G1 X142.356 Y136.641 E-.12315
;WIPE_END
G1 E-.05 F2100
G1 Z.6 F720
G1 X84.238 Y84.689 F10800
G1 Z.2 F720
G1 E1 F2100
M204 S800
;TYPE:Perimeter
G1 F1200
G1 X84.293 Y84.488 E.00651
G1 X84.476 Y84.3 E.00824
G1 X84.779 Y84.213 E.00986
G1 X108.244 Y84.213 E.73576
G1 X108.425 Y83.837 E.01307
G1 X108.681 Y83.721 E.0088
G1 X108.779 Y83.713 E.00308
G1 X111.221 Y83.713 E.0766
G1 X111.414 Y83.747 E.00613
G1 X111.575 Y83.837 E.00579
G1 X111.756 Y84.213 E.01307
G1 X135.221 Y84.213 E.73576
G1 X135.524 Y84.3 E.00986
G1 X135.707 Y84.488 E.00824
G1 X135.787 Y84.779 E.00944
G1 X135.787 Y108.244 E.73576
M73 P1 R75
M73 Q1 S76
G1 X136.163 Y108.425 E.01307
G1 X136.253 Y108.586 E.00579
G1 X136.287 Y108.779 E.00613
G1 X136.287 Y111.221 E.0766
G1 X136.253 Y111.414 E.00613
G1 X136.163 Y111.575 E.00579
G1 X135.787 Y111.756 E.01307
G1 X135.787 Y135.221 E.73576
G1 X135.707 Y135.512 E.00944
G1 X135.524 Y135.7 E.00824
G1 X135.221 Y135.787 E.00986
G1 X111.756 Y135.787 E.73576
G1 X111.575 Y136.163 E.01307
G1 X111.319 Y136.279 E.0088
G1 X111.221 Y136.287 E.00308
G1 X108.779 Y136.287 E.0766
G1 X108.586 Y136.253 E.00613
G1 X108.425 Y136.163 E.00579
G1 X108.244 Y135.787 E.01307
G1 X84.779 Y135.787 E.73576
G1 X84.476 Y135.7 E.00986
G1 X84.293 Y135.512 E.00824
G1 X84.213 Y135.221 E.00944
G1 X84.213 Y107.756 E.86117
G1 X83.837 Y107.575 E.01307
G1 X83.721 Y107.319 E.0088
G1 X83.713 Y107.221 E.00308
G1 X83.713 Y104.779 E.0766
G1 X83.747 Y104.586 E.00613
G1 X83.837 Y104.425 E.00579
G1 X84.213 Y104.244 E.01307
G1 X84.222 Y84.747 E.61134
M204 S1000
G1 X84.59 Y84.779 F10800
M204 S800
;TYPE:External perimeter
G1 F1200
G1 X84.662 Y84.631 E.00515
G1 X84.779 Y84.59 E.00388
G1 X108.59 Y84.59 E.74659
G1 X108.59 Y84.279 E.00977
G1 X108.661 Y84.131 E.00512
G1 X108.779 Y84.09 E.00392
G1 X111.221 Y84.09 E.0766
G1 X111.339 Y84.131 E.00392
G1 X111.41 Y84.279 E.00512
G1 X111.41 Y84.59 E.00977
G1 X135.221 Y84.59 E.74659
G1 X135.371 Y84.664 E.00523
G1 X135.41 Y84.779 E.0038
G1 X135.41 Y108.59 E.74659
G1 X135.721 Y108.59 E.00977
G1 X135.869 Y108.661 E.00512
G1 X135.91 Y108.779 E.00392
G1 X135.91 Y111.221 E.0766
G1 X135.869 Y111.339 E.00392
G1 X135.721 Y111.41 E.00512
G1 X135.41 Y111.41 E.00977
G1 X135.41 Y135.221 E.74659
G1 X135.338 Y135.369 E.00515
G1 X135.221 Y135.41 E.00388
G1 X111.41 Y135.41 E.74659
G1 X111.41 Y135.721 E.00977
G1 X111.339 Y135.869 E.00512
G1 X111.221 Y135.91 E.00392
G1 X108.779 Y135.91 E.0766
G1 X108.661 Y135.869 E.00392
G1 X108.59 Y135.721 E.00512
G1 X108.59 Y135.41 E.00977
G1 X84.779 Y135.41 E.74659
G1 X84.629 Y135.336 E.00523
G1 X84.59 Y135.221 E.0038
G1 X84.59 Y107.41 E.87201
G1 X84.279 Y107.41 E.00977
G1 X84.131 Y107.339 E.00512
G1 X84.09 Y107.221 E.00392
G1 X84.09 Y104.779 E.0766
G1 X84.131 Y104.661 E.00392
G1 X84.279 Y104.59 E.00512
G1 X84.59 Y104.59 E.00977
G1 X84.59 Y84.839 E.61929
M204 S1000
G1 X84.479 Y84.657 F10800
;WIPE_START
G1 F8640
G1 X84.662 Y84.631 E-.05077
G1 X84.779 Y84.59 E-.02859
G1 X88.549 Y84.59 E-.87064
;WIPE_END
G1 E-.05 F2100
G1 Z.6 F720
G1 X141.933 Y80.926 F10800
G1 Z.2 F720
G1 E1 F2100
M204 S800
;TYPE:Solid infill
;WIDTH:0.421328
G1 F1200
G1 X139.325 Y78.318 E.11605
G1 X139.213 Y78.268 E.00386
G1 X138.612 Y78.14 E.01932
G1 X141.86 Y81.388 E.14452
G1 X141.923 Y81.986 E.01892
G1 X138.034 Y78.097 E.17304
G1 X137.59 Y78.097 E.01398
G1 X137.515 Y78.113 E.00241
G1 X141.875 Y82.473 E.194
G1 X141.838 Y82.816 E.01085
G1 X141.8 Y82.934 E.0039
G1 X137.073 Y78.207 E.21033
G1 X136.787 Y78.268 E.00921
G1 X136.657 Y78.326 E.00448
G1 X141.669 Y83.338 E.22301
G1 X141.585 Y83.596 E.00855
G1 X141.514 Y83.718 E.00444
G1 X136.287 Y78.491 E.23262
G1 X136.038 Y78.602 E.00858
G1 X135.936 Y78.675 E.00395
G1 X141.319 Y84.058 E.2395
G1 X141.175 Y84.307 E.00905
G1 X141.107 Y84.381 E.00317
G1 X135.626 Y78.9 E.24389
G1 X135.327 Y79.136 E.01199
G1 X140.854 Y84.663 E.24594
G1 X140.595 Y84.939 E.01191
G1 X135.073 Y79.418 E.24568
G1 X134.821 Y79.701 E.01193
G1 X140.285 Y85.164 E.24312
G1 X139.975 Y85.389 E.01205
G1 X134.625 Y80.04 E.23804
G1 X134.429 Y80.379 E.01233
G1 X139.613 Y85.563 E.23065
G1 X139.258 Y85.743 E.01252
G1 X134.25 Y80.735 E.22285
G1 X134.122 Y80.877 E.006
G1 X133.954 Y80.974 E.00612
G1 X139.023 Y86.043 E.22554
G1 X138.981 Y86.115 E.00261
G1 X138.93 Y86.485 E.01177
G1 X133.515 Y81.07 E.24098
G1 X132.979 Y81.07 E.01684
G1 X138.93 Y87.021 E.26479
G1 X138.93 Y87.556 E.01684
G1 X136.058 Y84.684 E.12781
G1 X136.04 Y84.555 E.00409
G1 X135.98 Y84.397 E.00533
G1 X135.855 Y84.212 E.007
G1 X135.675 Y84.061 E.00739
G1 X135.465 Y83.965 E.00726
G1 X135.318 Y83.943 E.0047
G1 X132.444 Y81.07 E.12786
G1 X131.909 Y81.07 E.01684
G1 X134.769 Y83.93 E.12727
G1 X134.234 Y83.93 E.01684
G1 X131.374 Y81.07 E.12727
G1 X130.839 Y81.07 E.01684
G1 X133.699 Y83.93 E.12727
G1 X133.164 Y83.93 E.01684
G1 X130.304 Y81.07 E.12727
G1 X129.769 Y81.07 E.01684
G1 X132.629 Y83.93 E.12727
G1 X132.094 Y83.93 E.01684
G1 X129.233 Y81.07 E.12727
G1 X128.698 Y81.07 E.01684
G1 X131.558 Y83.93 E.12727
G1 X131.023 Y83.93 E.01684
G1 X128.163 Y81.07 E.12727
G1 X127.628 Y81.07 E.01684
G1 X130.488 Y83.93 E.12727
G1 X129.953 Y83.93 E.01684
G1 X127.093 Y81.07 E.12727
G1 X126.558 Y81.07 E.01684
G1 X129.418 Y83.93 E.12727
G1 X128.883 Y83.93 E.01684
G1 X126.022 Y81.07 E.12727
G1 X125.487 Y81.07 E.01684
G1 X128.348 Y83.93 E.12727
G1 X127.812 Y83.93 E.01684
G1 X124.952 Y81.07 E.12727
G1 X124.417 Y81.07 E.01684
G1 X127.277 Y83.93 E.12727
G1 X126.742 Y83.93 E.01684
G1 X123.882 Y81.07 E.12727
G1 X123.347 Y81.07 E.01684
G1 X126.207 Y83.93 E.12727
G1 X125.672 Y83.93 E.01684
G1 X122.812 Y81.07 E.12727
G1 X122.276 Y81.07 E.01684
G1 X125.137 Y83.93 E.12727
G1 X124.602 Y83.93 E.01684
G1 X121.741 Y81.07 E.12727
G1 X121.206 Y81.07 E.01684
G1 X124.066 Y83.93 E.12727
G1 X123.531 Y83.93 E.01684
G1 X120.671 Y81.07 E.12727
G1 X120.136 Y81.07 E.01684
G1 X122.996 Y83.93 E.12727
G1 X122.461 Y83.93 E.01684
G1 X119.601 Y81.07 E.12727
G1 X119.066 Y81.07 E.01684
G1 X121.926 Y83.93 E.12727
G1 X121.391 Y83.93 E.01684
G1 X118.53 Y81.07 E.12727
M73 Q1 S75
G1 X117.995 Y81.07 E.01684
G1 X120.855 Y83.93 E.12727
G1 X120.32 Y83.93 E.01684
G1 X117.46 Y81.07 E.12727
G1 X116.925 Y81.07 E.01684
G1 X119.785 Y83.93 E.12727
G1 X119.25 Y83.93 E.01684
G1 X116.39 Y81.07 E.12727
G1 X115.855 Y81.07 E.01684
G1 X118.715 Y83.93 E.12727
G1 X118.18 Y83.93 E.01684
G1 X115.319 Y81.07 E.12727
G1 X114.784 Y81.07 E.01684
G1 X117.645 Y83.93 E.12727
G1 X117.109 Y83.93 E.01684
G1 X114.249 Y81.07 E.12727
G1 X113.714 Y81.07 E.01684
G1 X116.574 Y83.93 E.12727
G1 X116.039 Y83.93 E.01684
G1 X113.179 Y81.07 E.12727
G1 X112.644 Y81.07 E.01684
G1 X115.504 Y83.93 E.12727
G1 X114.969 Y83.93 E.01684
G1 X112.109 Y81.07 E.12727
G1 X111.573 Y81.07 E.01684
G1 X114.434 Y83.93 E.12727
G1 X113.899 Y83.93 E.01684
G1 X111.038 Y81.07 E.12727
G1 X110.503 Y81.07 E.01684
G1 X113.363 Y83.93 E.12727
G1 X112.828 Y83.93 E.01684
G1 X109.968 Y81.07 E.12727
G1 X109.433 Y81.07 E.01684
G1 X112.293 Y83.93 E.12727
M73 P1 R74
G1 X111.913 Y83.93 E.01196
G1 X111.765 Y83.622 E.01075
G1 X111.51 Y83.479 E.00918
G1 X111.264 Y83.436 E.00787
G1 X108.898 Y81.07 E.10529
G1 X108.363 Y81.07 E.01684
G1 X110.723 Y83.43 E.10503
G1 X110.188 Y83.43 E.01684
G1 X107.827 Y81.07 E.10503
G1 X107.292 Y81.07 E.01684
G1 X109.652 Y83.43 E.10503
G1 X109.117 Y83.43 E.01684
G1 X106.757 Y81.07 E.10503
G1 X106.222 Y81.07 E.01684
G1 X108.61 Y83.458 E.10628
G1 X108.49 Y83.479 E.00386
G1 X108.238 Y83.621 E.00909
G1 X105.687 Y81.07 E.11351
G1 X105.152 Y81.07 E.01684
