; generated by PrusaSlicer 2.5.0+win64 on 2023-03-10 at 23:47:35 UTC


;
;

;
;
; 

; external perimeters extrusion width = 0.45mm
; perimeters extrusion width = 0.45mm
; infill extrusion width = 0.45mm
; solid infill extrusion width = 0.45mm
; top infill extrusion width = 0.40mm
; first layer extrusion width = 0.42mm

M73 P0 R10
M73 Q0 S10
M201 X1000 Y1000 Z200 E5000 ; sets maximum accelerations, mm/sec^2
M203 X350 Y350 Z12 E120 ; sets maximum feedrates, mm / sec
M204 P1250 R1250 T1250 ; sets acceleration (P, T) and retract acceleration (R), mm/sec^2
M205 X8.00 Y8.00 Z0.40 E4.50 ; sets the jerk limits, mm/sec
M205 S0 T0 ; sets the minimum extruding and travel feed rate, mm/sec
M107
;TYPE:Custom
M190 S0 ; Prevents prusaslicer from prepending m190 to the gcode ruining our macro
M109 S0 ; Prevents prusaslicer from prepending m109 to the gcode ruining our macro

; Play a tune to always know you're using Escrich Klipper Phoenix 3D printer
M300 S440 P200
M300 S660 P250



START_PRINT EXTRUDER_TEMP=215 BED_TEMP=60


G21 ; set units to millimeters
G90 ; use absolute coordinates
M83 ; use relative distances for extrusion
M900 K0.05 ; Filament gcode LA 1.5
M900 K30 ; Filament gcode LA 1.0
M107
;LAYER_CHANGE
;Z:0.2
;HEIGHT:0.2
;BEFORE_LAYER_CHANGE
G92 E0.0
;0.2


G1 E-1 F2100
G1 Z.4 F720
;AFTER_LAYER_CHANGE
;0.2
G1 X97.639 Y98.583 F10800
G1 Z.2 F720
G1 E1 F2100
M204 S800
;TYPE:Skirt/Brim
;WIDTH:0.42
G1 F1200
G1 X98.705 Y97.569 E.04612
G1 X100 Y97.246 E.04186
G1 X120 Y97.246 E.62709
G1 X121.417 Y97.639 E.04612
G1 X122.431 Y98.705 E.04612
G1 X122.754 Y100 E.04186
G1 X122.754 Y120 E.62709
G1 X122.361 Y121.417 E.04612
G1 X121.295 Y122.431 E.04612
G1 X120 Y122.754 E.04186
G1 X100 Y122.754 E.62709
G1 X98.583 Y122.361 E.04612
G1 X97.569 Y121.295 E.04612
G1 X97.246 Y120 E.04186
G1 X97.246 Y100 E.62709
G1 X97.623 Y98.64 E.04424
M204 S1000
M73 Q1 S10
G1 X97.997 Y98.752 F10800
M204 S800
G1 F1200
G1 X98.015 Y98.693 E.00195
G1 X99.06 Y97.817 E.04278
G1 X100 Y97.623 E.03008
G1 X120 Y97.623 E.62709
M73 P1 R10
G1 X121.307 Y98.015 E.04278
G1 X122.183 Y99.06 E.04278
G1 X122.377 Y100 E.03008
G1 X122.377 Y120 E.62709
G1 X121.985 Y121.307 E.04278
G1 X120.94 Y122.183 E.04278
G1 X120 Y122.377 E.03008
G1 X100 Y122.377 E.62709
G1 X98.693 Y121.985 E.04278
G1 X97.817 Y120.94 E.04278
G1 X97.623 Y120 E.03008
G1 X97.623 Y100 E.62709
G1 X97.979 Y98.81 E.03895
M204 S1000
; printing object 0.40mm-nozzle-0.80mm-walls-quickprint.stl id:0 copy 0
;WIPE_START
G1 F8640
G1 X98.015 Y98.693 E-.0282
G1 X99.06 Y97.817 E-.31505
G1 X100 Y97.623 E-.22155
G1 X101.668 Y97.623 E-.3852
;WIPE_END
G1 E-.05 F2100
G1 Z.6 F720
G1 X100.787 Y119.213 F10800
G1 Z.2 F720
G1 E1 F2100
M204 S800
;TYPE:Perimeter
;WIDTH:0.419999
G1 F1200
G1 X100.787 Y100.787 E.57773
M73 P2 R10
M73 Q2 S10
G1 X119.213 Y100.787 E.57773
G1 X119.213 Y119.213 E.57773
G1 X100.847 Y119.213 E.57585
M204 S1000
M73 P2 R9
G1 X100.41 Y119.59 F10800
M204 S800
;TYPE:External perimeter
G1 F1200
G1 X100.41 Y100.41 E.60137
M73 Q2 S9
G1 X119.59 Y100.41 E.60137
G1 X119.59 Y119.59 E.60137
G1 X100.47 Y119.59 E.59949
M204 S1000
M73 P3 R9
M73 Q3 S9
G1 X100.514 Y119.204 F10800
;WIPE_START
G1 F8640
G1 X100.457 Y115.476 E-.95
;WIPE_END
G1 E-.05 F2100
G1 Z.6 F720
G1 X118.333 Y100.9 F10800
G1 Z.2 F720
G1 E1 F2100
M204 S800
;TYPE:Solid infill
;WIDTH:0.422206
G1 F1200
G1 X118.93 Y101.497 E.02664
G1 X118.93 Y102.034 E.01692
G1 X117.966 Y101.07 E.04299
G1 X117.43 Y101.07 E.01692
G1 X118.93 Y102.57 E.06692
G1 X118.93 Y103.107 E.01692
G1 X116.893 Y101.07 E.09084
G1 X116.357 Y101.07 E.01692
G1 X118.93 Y103.643 E.11477
G1 X118.93 Y104.179 E.01692
G1 X115.821 Y101.07 E.13869
G1 X115.284 Y101.07 E.01692
G1 X118.93 Y104.716 E.16261
G1 X118.93 Y105.252 E.01692
G1 X114.748 Y101.07 E.18654
G1 X114.211 Y101.07 E.01692
G1 X118.93 Y105.789 E.21046
G1 X118.93 Y106.325 E.01692
G1 X113.675 Y101.07 E.23438
G1 X113.139 Y101.07 E.01692
G1 X118.93 Y106.861 E.25831
G1 X118.93 Y107.398 E.01692
G1 X112.602 Y101.07 E.28223
G1 X112.066 Y101.07 E.01692
G1 X118.93 Y107.934 E.30615
G1 X118.93 Y108.471 E.01692
G1 X111.529 Y101.07 E.33008
G1 X110.993 Y101.07 E.01692
G1 X118.93 Y109.007 E.354
M73 P4 R9
M73 Q4 S9
G1 X118.93 Y109.543 E.01692
G1 X110.457 Y101.07 E.37793
G1 X109.92 Y101.07 E.01692
G1 X118.93 Y110.08 E.40185
G1 X118.93 Y110.616 E.01692
G1 X109.384 Y101.07 E.42577
G1 X108.847 Y101.07 E.01692
G1 X118.93 Y111.153 E.4497
G1 X118.93 Y111.689 E.01692
G1 X108.311 Y101.07 E.47362
G1 X107.775 Y101.07 E.01692
G1 X118.93 Y112.225 E.49754
G1 X118.93 Y112.762 E.01692
G1 X107.238 Y101.07 E.52147
G1 X106.702 Y101.07 E.01692
G1 X118.93 Y113.298 E.54539
M73 P5 R9
M73 Q5 S9
G1 X118.93 Y113.834 E.01692
G1 X106.166 Y101.07 E.56931
G1 X105.629 Y101.07 E.01692
G1 X118.93 Y114.371 E.59324
G1 X118.93 Y114.907 E.01692
G1 X105.093 Y101.07 E.61716
G1 X104.556 Y101.07 E.01692
G1 X118.93 Y115.444 E.64109
G1 X118.93 Y115.98 E.01692
G1 X104.02 Y101.07 E.66501
G1 X103.484 Y101.07 E.01692
G1 X118.93 Y116.516 E.68893
M73 P6 R9
M73 Q6 S9
G1 X118.93 Y117.053 E.01692
G1 X102.947 Y101.07 E.71286
G1 X102.411 Y101.07 E.01692
G1 X118.93 Y117.589 E.73678
G1 X118.93 Y118.126 E.01692
G1 X101.874 Y101.07 E.7607
G1 X101.338 Y101.07 E.01692
G1 X118.93 Y118.662 E.78463
G1 X118.93 Y118.93 E.00846
G1 X118.662 Y118.93 E.00846
G1 X101.07 Y101.338 E.78462
M73 P7 R9
M73 Q7 S9
G1 X101.07 Y101.875 E.01692
G1 X118.125 Y118.93 E.7607
G1 X117.589 Y118.93 E.01692
G1 X101.07 Y102.411 E.73678
G1 X101.07 Y102.947 E.01692
G1 X117.053 Y118.93 E.71285
G1 X116.516 Y118.93 E.01692
G1 X101.07 Y103.484 E.68893
G1 X101.07 Y104.02 E.01692
G1 X115.98 Y118.93 E.665
M73 Q8 S9
G1 X115.444 Y118.93 E.01692
M73 P8 R9
G1 X101.07 Y104.556 E.64108
G1 X101.07 Y105.093 E.01692
G1 X114.907 Y118.93 E.61716
G1 X114.371 Y118.93 E.01692
G1 X101.07 Y105.629 E.59323
G1 X101.07 Y106.166 E.01692
G1 X113.834 Y118.93 E.56931
G1 X113.298 Y118.93 E.01692
G1 X101.07 Y106.702 E.54539
G1 X101.07 Y107.238 E.01692
G1 X112.762 Y118.93 E.52146
G1 X112.225 Y118.93 E.01692
G1 X101.07 Y107.775 E.49754
M73 P9 R9
M73 Q9 S9
G1 X101.07 Y108.311 E.01692
G1 X111.689 Y118.93 E.47362
G1 X111.152 Y118.93 E.01692
G1 X101.07 Y108.848 E.44969
G1 X101.07 Y109.384 E.01692
G1 X110.616 Y118.93 E.42577
G1 X110.08 Y118.93 E.01692
G1 X101.07 Y109.92 E.40184
G1 X101.07 Y110.457 E.01692
G1 X109.543 Y118.93 E.37792
G1 X109.007 Y118.93 E.01692
G1 X101.07 Y110.993 E.354
G1 X101.07 Y111.53 E.01692
G1 X108.47 Y118.93 E.33007
G1 X107.934 Y118.93 E.01692
G1 X101.07 Y112.066 E.30615
G1 X101.07 Y112.602 E.01692
G1 X107.398 Y118.93 E.28223
M73 P10 R9
M73 Q10 S9
G1 X106.861 Y118.93 E.01692
G1 X101.07 Y113.139 E.2583
G1 X101.07 Y113.675 E.01692
G1 X106.325 Y118.93 E.23438
G1 X105.788 Y118.93 E.01692
G1 X101.07 Y114.212 E.21046
G1 X101.07 Y114.748 E.01692
G1 X105.252 Y118.93 E.18653
G1 X104.716 Y118.93 E.01692
G1 X101.07 Y115.284 E.16261
G1 X101.07 Y115.821 E.01692
G1 X104.179 Y118.93 E.13868
G1 X103.643 Y118.93 E.01692
G1 X101.07 Y116.357 E.11476
G1 X101.07 Y116.893 E.01692
G1 X103.107 Y118.93 E.09084
G1 X102.57 Y118.93 E.01692
G1 X101.07 Y117.43 E.06691
G1 X101.07 Y117.966 E.01692
G1 X102.034 Y118.93 E.04299
G1 X101.497 Y118.93 E.01692
G1 X100.9 Y118.333 E.02663
M204 S1000
; stop printing object 0.40mm-nozzle-0.80mm-walls-quickprint.stl id:0 copy 0
M106 S84.15
;LAYER_CHANGE
;Z:0.4
;HEIGHT:0.2
;BEFORE_LAYER_CHANGE
G92 E0.0
;0.4


;WIPE_START
G1 F8640
G1 X101.497 Y118.93 E-.195
G1 X102.034 Y118.93 E-.12385
G1 X101.07 Y117.966 E-.31475
G1 X101.07 Y117.43 E-.12385
G1 X101.66 Y118.02 E-.19254
;WIPE_END
G1 E-.05 F2100
G1 Z.6 F720
;AFTER_LAYER_CHANGE
;0.4
M104 S210 ; set temperature
M140 S60 ; set bed temperature
G1 X97.246 Y118.02 F10800
G1 Z.4 F720
G1 E1 F2100
;TYPE:Skirt/Brim
;WIDTH:0.42
G1 F3000
G1 X97.246 Y100 E.56499
G1 X97.639 Y98.583 E.04612
G1 X98.705 Y97.569 E.04612
G1 X100 Y97.246 E.04186
G1 X120 Y97.246 E.62709
G1 X121.417 Y97.639 E.04612
G1 X122.431 Y98.705 E.04612
G1 X122.754 Y100 E.04186
G1 X122.754 Y120 E.62709
G1 X122.361 Y121.417 E.04612
G1 X121.295 Y122.431 E.04612
G1 X120 Y122.754 E.04186
G1 X100 Y122.754 E.62709
G1 X98.583 Y122.361 E.04612
G1 X97.569 Y121.295 E.04612
G1 X97.246 Y120 E.04186
G1 X97.246 Y118.08 E.06022
G1 X97.623 Y118.08 F10800
G1 F3000
G1 X97.623 Y100 E.56687
M73 Q11 S9
G1 X98.015 Y98.693 E.04278
G1 X99.06 Y97.817 E.04278
G1 X100 Y97.623 E.03008
M73 P11 R9
G1 X120 Y97.623 E.62709
G1 X121.307 Y98.015 E.04278
G1 X122.183 Y99.06 E.04278
G1 X122.377 Y100 E.03008
G1 X122.377 Y120 E.62709
G1 X121.985 Y121.307 E.04278
G1 X120.94 Y122.183 E.04278
G1 X120 Y122.377 E.03008
G1 X100 Y122.377 E.62709
G1 X98.693 Y121.985 E.04278
G1 X97.817 Y120.94 E.04278
G1 X97.623 Y120 E.03008
G1 X97.623 Y118.14 E.05833
; printing object 0.40mm-nozzle-0.80mm-walls-quickprint.stl id:0 copy 0
;WIPE_START
G1 F8640
G1 X97.623 Y114.025 E-.95
;WIPE_END
G1 E-.05 F2100
G1 Z.8 F720
G1 X100.632 Y119.368 F10800
G1 Z.4 F720
G1 E1 F2100
M204 S800
;TYPE:Perimeter
;WIDTH:0.449999
G1 F3600
G1 X100.632 Y100.632 E.63419
G1 X119.368 Y100.632 E.63419
G1 X119.368 Y119.368 E.63419
G1 X100.692 Y119.368 E.63215
M204 S1000
G1 X100.225 Y119.775 F10800
M204 S800
;TYPE:External perimeter
G1 F2100
G1 X100.225 Y100.225 E.66174
G1 X119.775 Y100.225 E.66174
G1 X119.775 Y119.775 E.66174
G1 X100.285 Y119.775 E.65971
M204 S1000
G1 X100.329 Y119.389 F10800
;WIPE_START
G1 F8640
G1 X100.272 Y115.661 E-.95
;WIPE_END
M73 Q12 S9
G1 E-.05 F2100
G1 Z.8 F720
M73 P12 R9
G1 X119.248 Y118.522 F10800
G1 Z.4 F720
G1 E1 F2100
;TYPE:Top solid infill
;WIDTH:0.401942
G1 F3000
G1 X118.683 Y119.088 E.02387
G1 X118.175 Y119.088 E.01516
G1 X119.088 Y118.175 E.03852
G1 X119.088 Y117.668 E.01516
G1 X117.668 Y119.088 E.05995
G1 X117.16 Y119.088 E.01516
G1 X119.088 Y117.16 E.08139
G1 X119.088 Y116.652 E.01516
G1 X116.652 Y119.088 E.10282
G1 X116.144 Y119.088 E.01516
G1 X119.088 Y116.144 E.12426
M73 P12 R8
G1 X119.088 Y115.637 E.01516
G1 X115.637 Y119.088 E.14569
G1 X115.129 Y119.088 E.01516
G1 X119.088 Y115.129 E.16713
G1 X119.088 Y114.621 E.01516
G1 X114.621 Y119.088 E.18857
G1 X114.113 Y119.088 E.01516
G1 X119.088 Y114.113 E.21
M73 Q12 S8
G1 X119.088 Y113.606 E.01516
G1 X113.606 Y119.088 E.23144
G1 X113.098 Y119.088 E.01516
G1 X119.088 Y113.098 E.25287
G1 X119.088 Y112.59 E.01516
G1 X112.59 Y119.088 E.27431
G1 X112.082 Y119.088 E.01516
G1 X119.088 Y112.082 E.29574
G1 X119.088 Y111.575 E.01516
G1 X111.575 Y119.088 E.31718
G1 X111.067 Y119.088 E.01516
G1 X119.088 Y111.067 E.33862
G1 X119.088 Y110.559 E.01516
G1 X110.559 Y119.088 E.36005
G1 X110.052 Y119.088 E.01516
G1 X119.088 Y110.052 E.38149
G1 X119.088 Y109.544 E.01516
G1 X109.544 Y119.088 E.40292
G1 X109.036 Y119.088 E.01516
G1 X119.088 Y109.036 E.42436
G1 X119.088 Y108.528 E.01516
G1 X108.528 Y119.088 E.44579
G1 X108.021 Y119.088 E.01516
G1 X119.088 Y108.021 E.46723
G1 X119.088 Y107.513 E.01516
G1 X107.513 Y119.088 E.48866
G1 X107.005 Y119.088 E.01516
G1 X119.088 Y107.005 E.5101
M73 Q13 S8
G1 X119.088 Y106.497 E.01516
G1 X106.497 Y119.088 E.53154
M73 P13 R8
G1 X105.99 Y119.088 E.01516
G1 X119.088 Y105.99 E.55297
G1 X119.088 Y105.482 E.01516
G1 X105.482 Y119.088 E.57441
G1 X104.974 Y119.088 E.01516
G1 X119.088 Y104.974 E.59584
G1 X119.088 Y104.466 E.01516
G1 X104.466 Y119.088 E.61728
G1 X103.959 Y119.088 E.01516
G1 X119.088 Y103.959 E.63871
G1 X119.088 Y103.451 E.01516
G1 X103.451 Y119.088 E.66015
G1 X102.943 Y119.088 E.01516
G1 X119.088 Y102.943 E.68159
G1 X119.088 Y102.436 E.01516
G1 X102.436 Y119.088 E.70302
G1 X101.928 Y119.088 E.01516
G1 X119.088 Y101.928 E.72446
G1 X119.088 Y101.42 E.01516
G1 X101.42 Y119.088 E.74589
G1 X100.912 Y119.088 E.01516
G1 X119.088 Y100.912 E.76733
G1 X118.58 Y100.912 E.01516
G1 X100.912 Y118.58 E.74589
M73 P14 R8
M73 Q14 S8
G1 X100.912 Y118.072 E.01516
G1 X118.072 Y100.912 E.72445
G1 X117.564 Y100.912 E.01516
G1 X100.912 Y117.564 E.70302
G1 X100.912 Y117.057 E.01516
G1 X117.057 Y100.912 E.68158
G1 X116.549 Y100.912 E.01516
G1 X100.912 Y116.549 E.66015
G1 X100.912 Y116.041 E.01516
G1 X116.041 Y100.912 E.63871
G1 X115.533 Y100.912 E.01516
G1 X100.912 Y115.533 E.61728
G1 X100.912 Y115.026 E.01516
G1 X115.026 Y100.912 E.59584
G1 X114.518 Y100.912 E.01516
G1 X100.912 Y114.518 E.57441
G1 X100.912 Y114.01 E.01516
G1 X114.01 Y100.912 E.55297
G1 X113.503 Y100.912 E.01516
G1 X100.912 Y113.503 E.53153
G1 X100.912 Y112.995 E.01516
G1 X112.995 Y100.912 E.5101
G1 X112.487 Y100.912 E.01516
G1 X100.912 Y112.487 E.48866
G1 X100.912 Y111.979 E.01516
G1 X111.979 Y100.912 E.46723
M73 P15 R8
M73 Q15 S8
G1 X111.472 Y100.912 E.01516
G1 X100.912 Y111.472 E.44579
G1 X100.912 Y110.964 E.01516
G1 X110.964 Y100.912 E.42436
G1 X110.456 Y100.912 E.01516
G1 X100.912 Y110.456 E.40292
G1 X100.912 Y109.948 E.01516
G1 X109.948 Y100.912 E.38148
G1 X109.441 Y100.912 E.01516
G1 X100.912 Y109.441 E.36005
G1 X100.912 Y108.933 E.01516
G1 X108.933 Y100.912 E.33861
G1 X108.425 Y100.912 E.01516
G1 X100.912 Y108.425 E.31718
G1 X100.912 Y107.917 E.01516
G1 X107.917 Y100.912 E.29574
G1 X107.41 Y100.912 E.01516
G1 X100.912 Y107.41 E.27431
G1 X100.912 Y106.902 E.01516
G1 X106.902 Y100.912 E.25287
G1 X106.394 Y100.912 E.01516
G1 X100.912 Y106.394 E.23144
G1 X100.912 Y105.887 E.01516
G1 X105.887 Y100.912 E.21
G1 X105.379 Y100.912 E.01516
G1 X100.912 Y105.379 E.18856
G1 X100.912 Y104.871 E.01516
G1 X104.871 Y100.912 E.16713
G1 X104.363 Y100.912 E.01516
G1 X100.912 Y104.363 E.14569
G1 X100.912 Y103.856 E.01516
G1 X103.856 Y100.912 E.12426
G1 X103.348 Y100.912 E.01516
G1 X100.912 Y103.348 E.10282
G1 X100.912 Y102.84 E.01516
G1 X102.84 Y100.912 E.08139
G1 X102.332 Y100.912 E.01516
G1 X100.912 Y102.332 E.05995
G1 X100.912 Y101.825 E.01516
G1 X101.825 Y100.912 E.03851
G1 X101.317 Y100.912 E.01516
G1 X100.752 Y101.478 E.02386
; stop printing object 0.40mm-nozzle-0.80mm-walls-quickprint.stl id:0 copy 0
M106 S170.85
;LAYER_CHANGE
;Z:0.6
;HEIGHT:0.2
;BEFORE_LAYER_CHANGE
G92 E0.0
;0.6


;WIPE_START
G1 F8640
G1 X101.317 Y100.912 E-.18457
G1 X101.825 Y100.912 E-.11724
G1 X100.912 Y101.825 E-.2979
G1 X100.912 Y102.332 E-.11724
G1 X101.626 Y101.619 E-.23306
;WIPE_END
G1 E-.05 F2100
G1 Z.8 F720
;AFTER_LAYER_CHANGE
;0.6
G1 X101.626 Y97.246 F10800
G1 Z.6 F720
G1 E1 F2100
;TYPE:Skirt/Brim
;WIDTH:0.42
G1 F1440
G1 X120 Y97.246 E.5761
M73 Q16 S8
G1 X121.417 Y97.639 E.04612
G1 X122.431 Y98.705 E.04612
M73 P16 R8
G1 X122.754 Y100 E.04186
G1 X122.754 Y120 E.62709
G1 X122.361 Y121.417 E.04612
G1 X121.295 Y122.431 E.04612
G1 X120 Y122.754 E.04186
G1 X100 Y122.754 E.62709
G1 X98.583 Y122.361 E.04612
G1 X97.569 Y121.295 E.04612
G1 X97.246 Y120 E.04186
G1 X97.246 Y100 E.62709
G1 X97.639 Y98.583 E.04612
G1 X98.705 Y97.569 E.04612
G1 X100 Y97.246 E.04186
G1 X101.566 Y97.246 E.0491
G1 X101.566 Y97.623 F10800
G1 F1440
G1 X120 Y97.623 E.57798
G1 X121.307 Y98.015 E.04278
G1 X122.183 Y99.06 E.04278
G1 X122.377 Y100 E.03008
G1 X122.377 Y120 E.62709
G1 X121.985 Y121.307 E.04278
G1 X120.94 Y122.183 E.04278
G1 X120 Y122.377 E.03008
G1 X100 Y122.377 E.62709
G1 X98.693 Y121.985 E.04278
M73 Q17 S8
G1 X97.817 Y120.94 E.04278
G1 X97.623 Y120 E.03008
M73 P17 R8
G1 X97.623 Y100 E.62709
G1 X98.015 Y98.693 E.04278
G1 X99.06 Y97.817 E.04278
G1 X100 Y97.623 E.03008
G1 X101.506 Y97.623 E.04722
; printing object 0.40mm-nozzle-0.80mm-walls-quickprint.stl id:0 copy 0
;WIPE_START
G1 F8640
G1 X105.62 Y97.623 E-.95
;WIPE_END
G1 E-.05 F2100
G1 Z1 F720
G1 X100.593 Y119.778 F10800
G1 Z.6 F720
G1 E1 F2100
M204 S800
;TYPE:External perimeter
;WIDTH:0.453933
G1 F1440
G1 X100.511 Y119.773 E.00281
;WIDTH:0.486406
G1 X100.243 Y119.757 E.00989
G1 X100.227 Y119.489 E.00989
;WIDTH:0.453933
G1 X100.211 Y119.221 E.00916
;WIDTH:0.42146
G1 X100.211 Y100.779 E.5805
;WIDTH:0.453933
G1 X100.227 Y100.511 E.00916
;WIDTH:0.486406
G1 X100.243 Y100.243 E.00989
G1 X100.511 Y100.227 E.00989
;WIDTH:0.453933
G1 X100.779 Y100.211 E.00916
;WIDTH:0.42146
G1 X119.221 Y100.211 E.5805
;WIDTH:0.453934
G1 X119.489 Y100.227 E.00916
;WIDTH:0.486407
G1 X119.757 Y100.243 E.00989
G1 X119.757 Y100.465 E.00818
G1 X119.773 Y100.622 E.00581
;WIDTH:0.453933
G1 X119.789 Y100.779 E.00539
;WIDTH:0.421459
G1 X119.789 Y119.221 E.5805
;WIDTH:0.453933
G1 X119.773 Y119.489 E.00916
;WIDTH:0.486407
