; generated by PrusaSlicer 2.5.0+win64 on 2023-03-15 at 11:19:33 UTC


;
;

;
;
; 

; external perimeters extrusion width = 0.45mm
; perimeters extrusion width = 0.45mm
; infill extrusion width = 0.45mm
; solid infill extrusion width = 0.45mm
; top infill extrusion width = 0.40mm
; first layer extrusion width = 0.42mm

M73 P0 R31
M73 Q0 S31
M201 X1000 Y1000 Z200 E5000 ; sets maximum accelerations, mm/sec^2
M203 X350 Y350 Z12 E120 ; sets maximum feedrates, mm / sec
M204 P1250 R1250 T1250 ; sets acceleration (P, T) and retract acceleration (R), mm/sec^2
M205 X8.00 Y8.00 Z0.40 E4.50 ; sets the jerk limits, mm/sec
M205 S0 T0 ; sets the minimum extruding and travel feed rate, mm/sec
M107
;TYPE:Custom
M190 S0 ; Prevents prusaslicer from prepending m190 to the gcode ruining our macro
M109 S0 ; Prevents prusaslicer from prepending m109 to the gcode ruining our macro

; Play a tune to always know you're using Escrich Klipper Phoenix 3D printer
M300 S440 P200
M300 S660 P250



START_PRINT EXTRUDER_TEMP=215 BED_TEMP=60


G21 ; set units to millimeters
G90 ; use absolute coordinates
M83 ; use relative distances for extrusion
M900 K0.05 ; Filament gcode LA 1.5
M900 K30 ; Filament gcode LA 1.0
M107
;LAYER_CHANGE
;Z:0.2
;HEIGHT:0.2
;BEFORE_LAYER_CHANGE
G92 E0.0
;0.2


G1 E-1 F2100
G1 Z.4 F720
;AFTER_LAYER_CHANGE
;0.2
G1 X97.639 Y98.583 F10800
G1 Z.2 F720
G1 E1 F2100
M204 S800
;TYPE:Skirt/Brim
;WIDTH:0.42
G1 F1200
G1 X98.705 Y97.569 E.04612
G1 X100 Y97.246 E.04186
G1 X120 Y97.246 E.62709
G1 X121.417 Y97.639 E.04612
G1 X122.431 Y98.705 E.04612
G1 X122.754 Y100 E.04186
G1 X122.754 Y120 E.62709
G1 X122.361 Y121.417 E.04612
G1 X121.295 Y122.431 E.04612
G1 X120 Y122.754 E.04186
G1 X100 Y122.754 E.62709
G1 X98.583 Y122.361 E.04612
G1 X97.569 Y121.295 E.04612
G1 X97.246 Y120 E.04186
G1 X97.246 Y100 E.62709
G1 X97.623 Y98.64 E.04424
M204 S1000
G1 X97.997 Y98.752 F10800
M204 S800
G1 F1200
G1 X98.015 Y98.693 E.00195
G1 X99.06 Y97.817 E.04278
G1 X100 Y97.623 E.03008
G1 X120 Y97.623 E.62709
G1 X121.307 Y98.015 E.04278
G1 X122.183 Y99.06 E.04278
G1 X122.377 Y100 E.03008
G1 X122.377 Y120 E.62709
G1 X121.985 Y121.307 E.04278
G1 X120.94 Y122.183 E.04278
G1 X120 Y122.377 E.03008
G1 X100 Y122.377 E.62709
G1 X98.693 Y121.985 E.04278
G1 X97.817 Y120.94 E.04278
G1 X97.623 Y120 E.03008
G1 X97.623 Y100 E.62709
G1 X97.979 Y98.81 E.03895
M204 S1000
; printing object Calibration Cube.stl id:0 copy 0
;WIPE_START
G1 F8640
G1 X98.015 Y98.693 E-.0282
G1 X99.06 Y97.817 E-.31505
G1 X100 Y97.623 E-.22155
G1 X101.668 Y97.623 E-.3852
;WIPE_END
G1 E-.05 F2100
G1 Z.6 F720
G1 X119.213 Y119.213 F10800
G1 Z.2 F720
G1 E1 F2100
M204 S800
;TYPE:Perimeter
;WIDTH:0.419999
G1 F1200
G1 X100.787 Y119.213 E.57773
G1 X100.787 Y100.787 E.57773
G1 X119.213 Y100.787 E.57773
G1 X119.213 Y119.153 E.57585
M204 S1000
G1 X119.59 Y119.59 F10800
M204 S800
;TYPE:External perimeter
G1 F1200
G1 X100.41 Y119.59 E.60137
G1 X100.41 Y100.41 E.60137
G1 X119.59 Y100.41 E.60137
G1 X119.59 Y119.53 E.59949
M204 S1000
M73 P1 R31
M73 Q1 S31
G1 X119.204 Y119.486 F10800
;WIPE_START
G1 F8640
G1 X115.476 Y119.543 E-.95
;WIPE_END
G1 E-.05 F2100
G1 Z.6 F720
G1 X118.333 Y100.9 F10800
G1 Z.2 F720
G1 E1 F2100
M204 S800
;TYPE:Solid infill
;WIDTH:0.422206
G1 F1200
G1 X118.93 Y101.497 E.02664
G1 X118.93 Y102.034 E.01692
G1 X117.966 Y101.07 E.04299
G1 X117.43 Y101.07 E.01692
G1 X118.93 Y102.57 E.06692
G1 X118.93 Y103.107 E.01692
G1 X116.893 Y101.07 E.09084
G1 X116.357 Y101.07 E.01692
G1 X118.93 Y103.643 E.11477
G1 X118.93 Y104.179 E.01692
G1 X115.821 Y101.07 E.13869
G1 X115.284 Y101.07 E.01692
G1 X118.93 Y104.716 E.16261
G1 X118.93 Y105.252 E.01692
G1 X114.748 Y101.07 E.18654
G1 X114.211 Y101.07 E.01692
G1 X118.93 Y105.789 E.21046
G1 X118.93 Y106.325 E.01692
G1 X113.675 Y101.07 E.23438
G1 X113.139 Y101.07 E.01692
G1 X118.93 Y106.861 E.25831
G1 X118.93 Y107.398 E.01692
G1 X112.602 Y101.07 E.28223
G1 X112.066 Y101.07 E.01692
G1 X118.93 Y107.934 E.30615
G1 X118.93 Y108.471 E.01692
G1 X111.529 Y101.07 E.33008
G1 X110.993 Y101.07 E.01692
G1 X118.93 Y109.007 E.354
G1 X118.93 Y109.543 E.01692
G1 X110.457 Y101.07 E.37793
G1 X109.92 Y101.07 E.01692
G1 X118.93 Y110.08 E.40185
G1 X118.93 Y110.616 E.01692
G1 X109.384 Y101.07 E.42577
G1 X108.847 Y101.07 E.01692
G1 X118.93 Y111.153 E.4497
G1 X118.93 Y111.689 E.01692
G1 X108.311 Y101.07 E.47362
G1 X107.775 Y101.07 E.01692
G1 X118.93 Y112.225 E.49754
G1 X118.93 Y112.762 E.01692
G1 X107.238 Y101.07 E.52147
G1 X106.702 Y101.07 E.01692
G1 X118.93 Y113.298 E.54539
G1 X118.93 Y113.834 E.01692
G1 X106.166 Y101.07 E.56931
G1 X105.629 Y101.07 E.01692
G1 X118.93 Y114.371 E.59324
G1 X118.93 Y114.907 E.01692
G1 X105.093 Y101.07 E.61716
G1 X104.556 Y101.07 E.01692
G1 X118.93 Y115.444 E.64109
G1 X118.93 Y115.98 E.01692
G1 X104.02 Y101.07 E.66501
G1 X103.484 Y101.07 E.01692
G1 X118.93 Y116.516 E.68893
G1 X118.93 Y117.053 E.01692
G1 X102.947 Y101.07 E.71286
M73 P2 R31
M73 Q2 S31
G1 X102.411 Y101.07 E.01692
G1 X118.93 Y117.589 E.73678
G1 X118.93 Y118.126 E.01692
G1 X101.874 Y101.07 E.7607
M73 P2 R30
G1 X101.338 Y101.07 E.01692
G1 X118.93 Y118.662 E.78463
M73 Q2 S30
G1 X118.93 Y118.93 E.00846
G1 X118.662 Y118.93 E.00846
G1 X101.07 Y101.338 E.78462
G1 X101.07 Y101.875 E.01692
G1 X118.125 Y118.93 E.7607
G1 X117.589 Y118.93 E.01692
G1 X101.07 Y102.411 E.73678
G1 X101.07 Y102.947 E.01692
G1 X117.053 Y118.93 E.71285
G1 X116.516 Y118.93 E.01692
G1 X101.07 Y103.484 E.68893
G1 X101.07 Y104.02 E.01692
G1 X115.98 Y118.93 E.665
G1 X115.444 Y118.93 E.01692
G1 X101.07 Y104.556 E.64108
G1 X101.07 Y105.093 E.01692
G1 X114.907 Y118.93 E.61716
G1 X114.371 Y118.93 E.01692
G1 X101.07 Y105.629 E.59323
G1 X101.07 Y106.166 E.01692
G1 X113.834 Y118.93 E.56931
G1 X113.298 Y118.93 E.01692
G1 X101.07 Y106.702 E.54539
G1 X101.07 Y107.238 E.01692
G1 X112.762 Y118.93 E.52146
G1 X112.225 Y118.93 E.01692
G1 X101.07 Y107.775 E.49754
G1 X101.07 Y108.311 E.01692
G1 X111.689 Y118.93 E.47362
G1 X111.152 Y118.93 E.01692
G1 X101.07 Y108.848 E.44969
M73 P3 R30
M73 Q3 S30
G1 X101.07 Y109.384 E.01692
G1 X110.616 Y118.93 E.42577
G1 X110.08 Y118.93 E.01692
G1 X101.07 Y109.92 E.40184
G1 X101.07 Y110.457 E.01692
G1 X109.543 Y118.93 E.37792
G1 X109.007 Y118.93 E.01692
G1 X101.07 Y110.993 E.354
G1 X101.07 Y111.53 E.01692
G1 X108.47 Y118.93 E.33007
G1 X107.934 Y118.93 E.01692
G1 X101.07 Y112.066 E.30615
G1 X101.07 Y112.602 E.01692
G1 X107.398 Y118.93 E.28223
G1 X106.861 Y118.93 E.01692
G1 X101.07 Y113.139 E.2583
G1 X101.07 Y113.675 E.01692
G1 X106.325 Y118.93 E.23438
G1 X105.788 Y118.93 E.01692
G1 X101.07 Y114.212 E.21046
G1 X101.07 Y114.748 E.01692
G1 X105.252 Y118.93 E.18653
G1 X104.716 Y118.93 E.01692
G1 X101.07 Y115.284 E.16261
G1 X101.07 Y115.821 E.01692
G1 X104.179 Y118.93 E.13868
G1 X103.643 Y118.93 E.01692
G1 X101.07 Y116.357 E.11476
G1 X101.07 Y116.893 E.01692
G1 X103.107 Y118.93 E.09084
G1 X102.57 Y118.93 E.01692
G1 X101.07 Y117.43 E.06691
G1 X101.07 Y117.966 E.01692
G1 X102.034 Y118.93 E.04299
G1 X101.497 Y118.93 E.01692
G1 X100.9 Y118.333 E.02663
M204 S1000
; stop printing object Calibration Cube.stl id:0 copy 0
M106 S84.15
;LAYER_CHANGE
;Z:0.4
;HEIGHT:0.2
;BEFORE_LAYER_CHANGE
G92 E0.0
;0.4


;WIPE_START
G1 F8640
G1 X101.497 Y118.93 E-.195
G1 X102.034 Y118.93 E-.12385
G1 X101.07 Y117.966 E-.31475
G1 X101.07 Y117.43 E-.12385
G1 X101.66 Y118.02 E-.19254
;WIPE_END
G1 E-.05 F2100
G1 Z.6 F720
;AFTER_LAYER_CHANGE
;0.4
M104 S210 ; set temperature
M140 S60 ; set bed temperature
G1 X97.246 Y118.02 F10800
G1 Z.4 F720
G1 E1 F2100
;TYPE:Skirt/Brim
;WIDTH:0.42
G1 F3000
G1 X97.246 Y100 E.56499
G1 X97.639 Y98.583 E.04612
G1 X98.705 Y97.569 E.04612
G1 X100 Y97.246 E.04186
G1 X120 Y97.246 E.62709
G1 X121.417 Y97.639 E.04612
G1 X122.431 Y98.705 E.04612
G1 X122.754 Y100 E.04186
G1 X122.754 Y120 E.62709
G1 X122.361 Y121.417 E.04612
G1 X121.295 Y122.431 E.04612
G1 X120 Y122.754 E.04186
G1 X100 Y122.754 E.62709
G1 X98.583 Y122.361 E.04612
G1 X97.569 Y121.295 E.04612
G1 X97.246 Y120 E.04186
G1 X97.246 Y118.08 E.06022
G1 X97.623 Y118.08 F10800
G1 F3000
G1 X97.623 Y100 E.56687
G1 X98.015 Y98.693 E.04278
G1 X99.06 Y97.817 E.04278
G1 X100 Y97.623 E.03008
G1 X120 Y97.623 E.62709
G1 X121.307 Y98.015 E.04278
G1 X122.183 Y99.06 E.04278
G1 X122.377 Y100 E.03008
G1 X122.377 Y120 E.62709
G1 X121.985 Y121.307 E.04278
G1 X120.94 Y122.183 E.04278
G1 X120 Y122.377 E.03008
G1 X100 Y122.377 E.62709
G1 X98.693 Y121.985 E.04278
G1 X97.817 Y120.94 E.04278
G1 X97.623 Y120 E.03008
G1 X97.623 Y118.14 E.05833
; printing object Calibration Cube.stl id:0 copy 0
;WIPE_START
G1 F8640
G1 X97.623 Y114.025 E-.95
;WIPE_END
G1 E-.05 F2100
G1 Z.8 F720
G1 X119.368 Y119.368 F10800
G1 Z.4 F720
G1 E1 F2100
M204 S800
;TYPE:Perimeter
;WIDTH:0.449999
G1 F3600
G1 X100.632 Y119.368 E.63419
G1 X100.632 Y100.632 E.63419
G1 X119.368 Y100.632 E.63419
G1 X119.368 Y119.308 E.63215
M204 S1000
G1 X119.775 Y119.775 F10800
M204 S800
;TYPE:External perimeter
G1 F2100
G1 X100.225 Y119.775 E.66174
G1 X100.225 Y100.225 E.66174
G1 X119.775 Y100.225 E.66174
G1 X119.775 Y119.715 E.65971
M204 S1000
G1 X119.389 Y119.671 F10800
;WIPE_START
G1 F8640
G1 X115.661 Y119.728 E-.95
;WIPE_END
G1 E-.05 F2100
G1 Z.8 F720
G1 X119.246 Y118.418 F10800
G1 Z.4 F720
G1 E1 F2100
;TYPE:Solid infill
;WIDTH:0.452429
G1 F7091
G1 X118.601 Y119.063 E.03105
G1 X118.022 Y119.063 E.01972
G1 X119.063 Y118.022 E.05012
G1 X119.063 Y117.443 E.01972
G1 X117.443 Y119.063 E.07801
G1 X116.864 Y119.063 E.01972
G1 X119.063 Y116.864 E.1059
G1 X119.063 Y116.284 E.01972
G1 X116.284 Y119.063 E.13379
G1 X115.705 Y119.063 E.01972
G1 X119.063 Y115.705 E.16167
G1 X119.063 Y115.126 E.01972
G1 X115.126 Y119.063 E.18956
G1 X114.547 Y119.063 E.01972
G1 X119.063 Y114.547 E.21745
G1 X119.063 Y113.968 E.01972
G1 X113.968 Y119.063 E.24534
G1 X113.389 Y119.063 E.01972
G1 X119.063 Y113.389 E.27323
G1 X119.063 Y112.81 E.01972
G1 X112.81 Y119.063 E.30112
G1 X112.23 Y119.063 E.01972
G1 X119.063 Y112.23 E.329
M73 Q4 S30
G1 X119.063 Y111.651 E.01972
G1 X111.651 Y119.063 E.35689
M73 P4 R30
G1 X111.072 Y119.063 E.01972
G1 X119.063 Y111.072 E.38478
G1 X119.063 Y110.493 E.01972
G1 X110.493 Y119.063 E.41267
G1 X109.914 Y119.063 E.01972
G1 X119.063 Y109.914 E.44056
G1 X119.063 Y109.335 E.01972
G1 X109.335 Y119.063 E.46844
G1 X108.756 Y119.063 E.01972
G1 X119.063 Y108.756 E.49633
G1 X119.063 Y108.177 E.01972
G1 X108.177 Y119.063 E.52422
G1 X107.597 Y119.063 E.01972
G1 X119.063 Y107.597 E.55211
G1 X119.063 Y107.018 E.01972
G1 X107.018 Y119.063 E.58
G1 X106.439 Y119.063 E.01972
G1 X119.063 Y106.439 E.60789
G1 X119.063 Y105.86 E.01972
G1 X105.86 Y119.063 E.63577
G1 X105.281 Y119.063 E.01972
G1 X119.063 Y105.281 E.66366
G1 X119.063 Y104.702 E.01972
G1 X104.702 Y119.063 E.69155
G1 X104.123 Y119.063 E.01972
G1 X119.063 Y104.123 E.71944
G1 X119.063 Y103.543 E.01972
G1 X103.543 Y119.063 E.74733
G1 X102.964 Y119.063 E.01972
G1 X119.063 Y102.964 E.77521
G1 X119.063 Y102.385 E.01972
G1 X102.385 Y119.063 E.8031
G1 X101.806 Y119.063 E.01972
G1 X119.063 Y101.806 E.83099
G1 X119.063 Y101.227 E.01972
G1 X101.227 Y119.063 E.85888
G1 X100.937 Y119.063 E.00986
G1 X100.937 Y118.773 E.00986
G1 X118.773 Y100.937 E.85888
G1 X118.194 Y100.937 E.01972
G1 X100.937 Y118.194 E.83099
G1 X100.937 Y117.615 E.01972
G1 X117.615 Y100.937 E.8031
G1 X117.036 Y100.937 E.01972
G1 X100.937 Y117.036 E.77521
G1 X100.937 Y116.456 E.01972
G1 X116.456 Y100.937 E.74732
G1 X115.877 Y100.937 E.01972
G1 X100.937 Y115.877 E.71944
G1 X100.937 Y115.298 E.01972
G1 X115.298 Y100.937 E.69155
G1 X114.719 Y100.937 E.01972
G1 X100.937 Y114.719 E.66366
G1 X100.937 Y114.14 E.01972
G1 X114.14 Y100.937 E.63577
G1 X113.561 Y100.937 E.01972
G1 X100.937 Y113.561 E.60788
G1 X100.937 Y112.982 E.01972
G1 X112.982 Y100.937 E.57999
G1 X112.403 Y100.937 E.01972
G1 X100.937 Y112.403 E.55211
G1 X100.937 Y111.823 E.01972
G1 X111.823 Y100.937 E.52422
G1 X111.244 Y100.937 E.01972
G1 X100.937 Y111.244 E.49633
G1 X100.937 Y110.665 E.01972
G1 X110.665 Y100.937 E.46844
G1 X110.086 Y100.937 E.01972
G1 X100.937 Y110.086 E.44055
G1 X100.937 Y109.507 E.01972
G1 X109.507 Y100.937 E.41267
G1 X108.928 Y100.937 E.01972
G1 X100.937 Y108.928 E.38478
G1 X100.937 Y108.349 E.01972
G1 X108.349 Y100.937 E.35689
G1 X107.769 Y100.937 E.01972
G1 X100.937 Y107.769 E.329
G1 X100.937 Y107.19 E.01972
G1 X107.19 Y100.937 E.30111
G1 X106.611 Y100.937 E.01972
G1 X100.937 Y106.611 E.27322
G1 X100.937 Y106.032 E.01972
G1 X106.032 Y100.937 E.24534
G1 X105.453 Y100.937 E.01972
G1 X100.937 Y105.453 E.21745
G1 X100.937 Y104.874 E.01972
G1 X104.874 Y100.937 E.18956
G1 X104.295 Y100.937 E.01972
G1 X100.937 Y104.295 E.16167
G1 X100.937 Y103.716 E.01972
G1 X103.716 Y100.937 E.13378
G1 X103.136 Y100.937 E.01972
G1 X100.937 Y103.136 E.10589
G1 X100.937 Y102.557 E.01972
G1 X102.557 Y100.937 E.07801
G1 X101.978 Y100.937 E.01972
G1 X100.937 Y101.978 E.05012
G1 X100.937 Y101.399 E.01972
G1 X101.582 Y100.754 E.03105
; stop printing object Calibration Cube.stl id:0 copy 0
M106 S170.85
;LAYER_CHANGE
;Z:0.6
;HEIGHT:0.2
;BEFORE_LAYER_CHANGE
G92 E0.0
;0.6


;WIPE_START
G1 F8640
G1 X100.937 Y101.399 E-.21056
G1 X100.937 Y101.978 E-.13372
G1 X101.978 Y100.937 E-.33986
G1 X102.557 Y100.937 E-.13372
G1 X102.153 Y101.342 E-.13213
;WIPE_END
G1 E-.05 F2100
G1 Z.8 F720
;AFTER_LAYER_CHANGE
;0.6
G1 X102.153 Y97.246 F10800
G1 Z.6 F720
G1 E1 F2100
;TYPE:Skirt/Brim
;WIDTH:0.42
G1 F3000
G1 X120 Y97.246 E.55959
G1 X121.417 Y97.639 E.04612
G1 X122.431 Y98.705 E.04612
G1 X122.754 Y100 E.04186
G1 X122.754 Y120 E.62709
G1 X122.361 Y121.417 E.04612
G1 X121.295 Y122.431 E.04612
G1 X120 Y122.754 E.04186
G1 X100 Y122.754 E.62709
G1 X98.583 Y122.361 E.04612
G1 X97.569 Y121.295 E.04612
G1 X97.246 Y120 E.04186
G1 X97.246 Y100 E.62709
G1 X97.639 Y98.583 E.04612
G1 X98.705 Y97.569 E.04612
G1 X100 Y97.246 E.04186
G1 X102.093 Y97.246 E.06561
G1 X102.093 Y97.623 F10800
G1 F3000
G1 X120 Y97.623 E.56147
G1 X121.307 Y98.015 E.04278
G1 X122.183 Y99.06 E.04278
G1 X122.377 Y100 E.03008
G1 X122.377 Y120 E.62709
G1 X121.985 Y121.307 E.04278
G1 X120.94 Y122.183 E.04278
G1 X120 Y122.377 E.03008
G1 X100 Y122.377 E.62709
G1 X98.693 Y121.985 E.04278
G1 X97.817 Y120.94 E.04278
G1 X97.623 Y120 E.03008
G1 X97.623 Y100 E.62709
G1 X98.015 Y98.693 E.04278
G1 X99.06 Y97.817 E.04278
G1 X100 Y97.623 E.03008
G1 X102.033 Y97.623 E.06373
; printing object Calibration Cube.stl id:0 copy 0
;WIPE_START
G1 F8640
G1 X106.147 Y97.623 E-.95
;WIPE_END
G1 E-.05 F2100
G1 Z1 F720
G1 X119.368 Y119.368 F10800
G1 Z.6 F720
G1 E1 F2100
M204 S800
;TYPE:Perimeter
;WIDTH:0.449999
G1 F3600
G1 X100.632 Y119.368 E.63419
G1 X100.632 Y100.632 E.63419
G1 X119.368 Y100.632 E.63419
M73 P5 R30
M73 Q5 S30
G1 X119.368 Y119.308 E.63215
M204 S1000
G1 X119.775 Y119.775 F10800
M204 S800
;TYPE:External perimeter
G1 F2100
G1 X100.225 Y119.775 E.66174
G1 X100.225 Y100.225 E.66174
G1 X119.775 Y100.225 E.66174
G1 X119.775 Y119.715 E.65971
M204 S1000
G1 X119.389 Y119.671 F10800
;WIPE_START
G1 F8640
G1 X115.661 Y119.728 E-.95
;WIPE_END
G1 E-.05 F2100
G1 Z1 F720
G1 X118.418 Y100.754 F10800
G1 Z.6 F720
G1 E1 F2100
;TYPE:Solid infill
;WIDTH:0.452429
G1 F7194
G1 X119.063 Y101.399 E.03105
G1 X119.063 Y101.978 E.01972
G1 X118.022 Y100.937 E.05012
G1 X117.443 Y100.937 E.01972
G1 X119.063 Y102.557 E.07801
G1 X119.063 Y103.136 E.01972
G1 X116.864 Y100.937 E.1059
G1 X116.284 Y100.937 E.01972
G1 X119.063 Y103.716 E.13379
G1 X119.063 Y104.295 E.01972
G1 X115.705 Y100.937 E.16167
G1 X115.126 Y100.937 E.01972
G1 X119.063 Y104.874 E.18956
G1 X119.063 Y105.453 E.01972
G1 X114.547 Y100.937 E.21745
G1 X113.968 Y100.937 E.01972
G1 X119.063 Y106.032 E.24534
G1 X119.063 Y106.611 E.01972
G1 X113.389 Y100.937 E.27323
G1 X112.81 Y100.937 E.01972
G1 X119.063 Y107.19 E.30112
G1 X119.063 Y107.77 E.01972
G1 X112.23 Y100.937 E.329
G1 X111.651 Y100.937 E.01972
G1 X119.063 Y108.349 E.35689
G1 X119.063 Y108.928 E.01972
G1 X111.072 Y100.937 E.38478
G1 X110.493 Y100.937 E.01972
M73 P5 R29
G1 X119.063 Y109.507 E.41267
G1 X119.063 Y110.086 E.01972
G1 X109.914 Y100.937 E.44056
G1 X109.335 Y100.937 E.01972
G1 X119.063 Y110.665 E.46844
G1 X119.063 Y111.244 E.01972
G1 X108.756 Y100.937 E.49633
