; generated by PrusaSlicer 2.5.0+win64 on 2023-03-09 at 01:56:20 UTC


;
;

;
;
; 

; external perimeters extrusion width = 0.45mm
; perimeters extrusion width = 0.45mm
; infill extrusion width = 0.45mm
; solid infill extrusion width = 0.45mm
; top infill extrusion width = 0.40mm
; first layer extrusion width = 0.42mm

M73 P0 R84
M73 Q0 S85
M201 X1000 Y1000 Z200 E5000 ; sets maximum accelerations, mm/sec^2
M203 X350 Y350 Z12 E120 ; sets maximum feedrates, mm / sec
M204 P1250 R1250 T1250 ; sets acceleration (P, T) and retract acceleration (R), mm/sec^2
M205 X8.00 Y8.00 Z0.40 E4.50 ; sets the jerk limits, mm/sec
M205 S0 T0 ; sets the minimum extruding and travel feed rate, mm/sec
M107
;TYPE:Custom
M190 S0 ; Prevents prusaslicer from prepending m190 to the gcode ruining our macro
M109 S0 ; Prevents prusaslicer from prepending m109 to the gcode ruining our macro
START_PRINT EXTRUDER_TEMP=215 BED_TEMP=60


G21 ; set units to millimeters
G90 ; use absolute coordinates
M83 ; use relative distances for extrusion
M900 K0.05 ; Filament gcode LA 1.5
M900 K30 ; Filament gcode LA 1.0
M107
;LAYER_CHANGE
;Z:0.2
;HEIGHT:0.2
;BEFORE_LAYER_CHANGE
G92 E0.0
;0.2


G1 E-1 F2100
G1 Z.4 F720
;AFTER_LAYER_CHANGE
;0.2
G1 X83.16 Y101.145 F10800
G1 Z.2 F720
G1 E1 F2100
M204 S800
;TYPE:Skirt/Brim
;WIDTH:0.42
G1 F1200
G1 X84.113 Y100.661 E.03352
G1 X85.318 Y100.397 E.0387
G1 X110.086 Y98.859 E.77808
G1 X112.408 Y99.013 E.07297
G1 X114.753 Y99.479 E.07495
G1 X117.019 Y100.247 E.07502
G1 X119.182 Y101.316 E.07565
G1 X121.196 Y102.669 E.07608
G1 X123.022 Y104.288 E.07651
G1 X124.634 Y106.163 E.07755
G1 X125.9 Y108.108 E.07275
G1 X126.264 Y109.099 E.03308
G1 X126.363 Y110.168 E.03367
G1 X126.194 Y111.166 E.03175
G1 X125.792 Y112.086 E.03146
G1 X124.661 Y113.801 E.06443
G1 X123.315 Y115.407 E.06569
G1 X121.738 Y116.896 E.06802
G1 X120.146 Y118.085 E.0623
G1 X117.808 Y119.404 E.08415
G1 X116.53 Y119.947 E.04354
G1 X115.235 Y120.385 E.04289
G1 X113.973 Y120.711 E.04087
G1 X112.481 Y120.977 E.04751
G1 X109.814 Y121.14 E.08378
G1 X85.191 Y119.591 E.77356
G1 X84.119 Y119.341 E.03452
G1 X83.26 Y118.92 E.02999
G1 X82.507 Y118.32 E.03019
G1 X81.906 Y117.573 E.03006
G1 X81.394 Y116.466 E.03823
G1 X81.189 Y115.276 E.03789
G1 X81.198 Y104.565 E.33582
G1 X81.393 Y103.536 E.03284
G1 X81.842 Y102.529 E.03457
G1 X82.424 Y101.765 E.03011
G1 X83.114 Y101.184 E.02828
M204 S1000
G1 X83.355 Y101.469 F10800
M204 S800
G1 F1200
G1 X84.247 Y101.014 E.03139
G1 X85.354 Y100.773 E.03554
G1 X110.085 Y99.236 E.77692
G1 X112.358 Y99.387 E.07143
G1 X114.653 Y99.843 E.07336
G1 X116.877 Y100.596 E.07363
G1 X118.991 Y101.641 E.07393
G1 X120.967 Y102.968 E.07463
G1 X122.755 Y104.555 E.07495
G1 X124.334 Y106.391 E.07592
G1 X125.565 Y108.282 E.07074
G1 X125.897 Y109.186 E.0302
G1 X125.984 Y110.211 E.03227
G1 X125.774 Y111.238 E.03287
G1 X125.317 Y112.149 E.03194
G1 X124.204 Y113.779 E.06189
G1 X122.907 Y115.289 E.06241
G1 X121.494 Y116.608 E.06059
G1 X119.903 Y117.794 E.06222
G1 X117.649 Y119.062 E.0811
G1 X116.394 Y119.595 E.04275
G1 X115.128 Y120.023 E.04191
G1 X113.894 Y120.343 E.03997
G1 X112.427 Y120.604 E.04671
G1 X109.92 Y120.765 E.07876
G1 X85.227 Y119.215 E.77576
M73 Q0 S84
G1 X84.252 Y118.988 E.03139
G1 X83.466 Y118.604 E.02744
G1 X82.777 Y118.056 E.02759
G1 X82.226 Y117.374 E.02748
G1 X81.755 Y116.359 E.03508
G1 X81.565 Y115.263 E.03487
G1 X81.574 Y104.599 E.33438
G1 X81.72 Y103.762 E.02664
G1 X82.08 Y102.874 E.03004
G1 X82.694 Y102.029 E.03277
G1 X83.31 Y101.508 E.02527
M204 S1000
; printing object 3DBenchy id:0 copy 0
;WIPE_START
G1 F8640
G1 X84.247 Y101.014 E-.24466
G1 X85.354 Y100.773 E-.26172
G1 X87.272 Y100.654 E-.44362
;WIPE_END
G1 E-.05 F2100
G1 Z.6 F720
G1 X118.585 Y107.698 F10800
G1 Z.2 F720
G1 E1 F2100
M204 S800
;TYPE:Perimeter
;WIDTH:0.419999
G1 F1200
G1 X117.998 Y107.7 E.01842
G1 X117.399 Y107.793 E.01899
G1 X116.938 Y108.039 E.01637
G1 X116.771 Y108.264 E.00879
G1 X116.456 Y107.914 E.01475
G1 X116.026 Y107.734 E.01462
G1 X115.718 Y107.73 E.00967
G1 X115.358 Y107.848 E.01186
G1 X115.146 Y108.002 E.00823
G1 X114.741 Y108.509 E.02033
G1 X114.538 Y109.044 E.01794
G1 X114.353 Y108.457 E.01928
G1 X114.12 Y108.119 E.01289
G1 X113.792 Y107.875 E.01281
G1 X113.384 Y107.727 E.0136
G1 X112.934 Y107.719 E.01413
G1 X112.488 Y107.874 E.0148
G1 X112.15 Y108.208 E.0149
G1 X111.933 Y107.975 E.00999
G1 X111.488 Y107.745 E.01569
G1 X111.082 Y107.72 E.01278
G1 X110.716 Y107.854 E.0122
G1 X110.345 Y108.167 E.01521
G1 X110.174 Y108.419 E.00956
G1 X110.005 Y108.142 E.01016
G1 X109.605 Y107.822 E.01605
G1 X109.18 Y107.709 E.01382
G1 X108.73 Y107.769 E.01423
G1 X108.37 Y107.947 E.01258
G1 X108.07 Y108.252 E.01343
G1 X107.906 Y108.644 E.01331
G1 X107.907 Y109.151 E.01591
G1 X108.056 Y109.59 E.01453
G1 X108.708 Y110.754 E.04182
G1 X108.557 Y110.997 E.00897
G1 X108.294 Y111.56 E.01949
G1 X108.213 Y111.392 E.00586
G1 X107.948 Y111.051 E.01355
G1 X107.521 Y110.763 E.01614
G1 X107.288 Y110.677 E.0078
G1 X106.688 Y110.624 E.01888
G1 X106.316 Y110.721 E.01205
G1 X106.397 Y109.785 E.02946
G1 X106.359 Y109.251 E.01679
G1 X106.225 Y108.572 E.02169
G1 X106.061 Y108.092 E.0159
G1 X105.77 Y107.557 E.01911
G1 X105.403 Y107.11 E.01814
G1 X105.007 Y106.783 E.01609
G1 X104.528 Y106.531 E.01697
G1 X104.003 Y106.375 E.01717
G1 X103.352 Y106.284 E.02063
G1 X101.745 Y106.247 E.05039
G1 X101.372 Y106.282 E.01175
G1 X100.881 Y106.457 E.01631
G1 X100.539 Y106.763 E.01439
G1 X100.346 Y107.177 E.01433
;WIDTH:0.462143
G1 X100.319 Y107.349 E.00607
;WIDTH:0.504287
G1 X100.293 Y107.521 E.00668
;WIDTH:0.54643
G1 X100.266 Y107.693 E.00729
G1 X100.151 Y107.479 E.01019
;WIDTH:0.504287
G1 X100.035 Y107.264 E.00934
;WIDTH:0.462143
G1 X99.92 Y107.05 E.00849
;WIDTH:0.419999
G1 X99.524 Y106.612 E.01851
G1 X98.948 Y106.282 E.02083
G1 X98.298 Y106.12 E.02099
G1 X97.527 Y106.094 E.02418
G1 X96.799 Y106.213 E.02313
G1 X96.286 Y106.435 E.01755
G1 X95.76 Y106.861 E.02121
G1 X95.524 Y106.562 E.01195
G1 X95.188 Y106.357 E.01234
G1 X94.714 Y106.258 E.01517
G1 X91.541 Y106.269 E.09949
G1 X90.829 Y106.23 E.02236
G1 X90.258 Y106.387 E.01858
G1 X89.952 Y106.677 E.0132
G1 X89.744 Y107.009 E.01228
G1 X89.44 Y106.681 E.01403
G1 X89.038 Y106.409 E.01523
G1 X88.66 Y106.245 E.01292
G1 X88.126 Y106.121 E.01719
G1 X87.553 Y106.088 E.018
G1 X86.861 Y106.161 E.02179
G1 X86.211 Y106.372 E.02144
G1 X85.576 Y106.756 E.02327
G1 X85.143 Y107.174 E.01887
G1 X84.907 Y107.512 E.01293
G1 X84.917 Y105.264 E.07048
G1 X84.963 Y104.898 E.01156
G1 X85.07 Y104.587 E.01033
G1 X85.305 Y104.316 E.01123
G1 X85.504 Y104.225 E.00687
G1 X85.854 Y104.133 E.01135
G1 X109.158 Y102.717 E.73202
G1 X110.243 Y102.694 E.03402
G1 X111.039 Y102.726 E.025
G1 X111.735 Y102.793 E.02192
G1 X112.309 Y102.873 E.01816
G1 X112.974 Y102.996 E.0212
G1 X113.861 Y103.217 E.02866
G1 X114.511 Y103.413 E.0213
G1 X115.2 Y103.665 E.02297
G1 X115.754 Y103.894 E.0188
G1 X116.623 Y104.318 E.03033
G1 X117.157 Y104.61 E.01908
G1 X117.778 Y104.995 E.02291
G1 X118.346 Y105.386 E.02164
G1 X118.95 Y105.851 E.02388
G1 X119.502 Y106.324 E.02278
G1 X119.949 Y106.746 E.01928
G1 X120.5 Y107.321 E.02499
;WIDTH:0.46556
G1 X120.556 Y107.42 E.00398
;WIDTH:0.51112
G1 X120.612 Y107.518 E.00441
;WIDTH:0.55668
G1 X120.667 Y107.617 E.00484
;WIDTH:0.60224
G1 X120.723 Y107.715 E.00526
;WIDTH:0.6478
G1 X120.779 Y107.814 E.00569
G1 X120.708 Y107.803 E.00357
;WIDTH:0.605095
G1 X120.638 Y107.792 E.00332
;WIDTH:0.56239
G1 X120.568 Y107.781 E.00307
;WIDTH:0.519685
G1 X120.306 Y107.74 E.01051
;WIDTH:0.469842
G1 X120.044 Y107.699 E.00941
;WIDTH:0.419999
G1 X118.645 Y107.698 E.04387
M204 S1000
;WIPE_START
G1 F8640
G1 X117.998 Y107.7 E-.14951
G1 X117.399 Y107.793 E-.13988
G1 X116.938 Y108.039 E-.12054
G1 X116.771 Y108.264 E-.06471
G1 X116.456 Y107.914 E-.10865
G1 X116.026 Y107.734 E-.1077
G1 X115.718 Y107.73 E-.07121
G1 X115.358 Y107.848 E-.08733
G1 X115.146 Y108.002 E-.06062
G1 X115.038 Y108.137 E-.03984
;WIPE_END
G1 E-.05 F2100
G1 Z.6 F720
G1 X119.952 Y111.363 F10800
G1 Z.2 F720
G1 E1 F2100
M204 S800
G1 F1200
G1 X120.478 Y110.652 E.02775
G1 X120.989 Y109.909 E.02825
G1 X121.2 Y109.41 E.017
G1 X121.229 Y108.85 E.01757
;WIDTH:0.460156
G1 X121.22 Y108.74 E.00382
;WIDTH:0.500312
G1 X121.211 Y108.631 E.00419
;WIDTH:0.540468
G1 X121.202 Y108.521 E.00455
;WIDTH:0.580624
G1 X121.192 Y108.411 E.00492
;WIDTH:0.62078
G1 X121.183 Y108.302 E.00529
G1 X121.254 Y108.36 E.00441
;WIDTH:0.575814
G1 X121.325 Y108.418 E.00406
;WIDTH:0.530848
G1 X121.396 Y108.476 E.00372
;WIDTH:0.485882
G1 X121.466 Y108.535 E.00338
;WIDTH:0.440915
G1 X121.673 Y108.803 E.01121
;WIDTH:0.419999
G1 X121.987 Y109.282 E.01796
G1 X122.279 Y109.794 E.01849
G1 X122.316 Y110.087 E.00926
G1 X122.24 Y110.296 E.00698
G1 X121.834 Y110.957 E.02431
G1 X121.098 Y112.054 E.04143
G1 X120.963 Y111.826 E.00832
G1 X120.748 Y111.622 E.00929
G1 X120.376 Y111.426 E.01319
G1 X120.011 Y111.371 E.01157
M204 S1000
;WIPE_START
G1 F8640
G1 X120.478 Y110.652 E-.19818
G1 X120.989 Y109.909 E-.20807
G1 X121.2 Y109.41 E-.12517
G1 X121.229 Y108.85 E-.12942
G1 X121.22 Y108.74 E-.02541
G1 X121.211 Y108.631 E-.02541
G1 X121.202 Y108.521 E-.02541
G1 X121.192 Y108.411 E-.02541
G1 X121.183 Y108.302 E-.02541
G1 X121.254 Y108.36 E-.02117
G1 X121.325 Y108.418 E-.02117
G1 X121.396 Y108.476 E-.02117
G1 X121.466 Y108.535 E-.02117
G1 X121.671 Y108.8 E-.07742
;WIPE_END
G1 E-.05 F2100
G1 Z.6 F720
G1 X99.741 Y109.474 F10800
G1 Z.2 F720
G1 E1 F2100
M204 S800
;WIDTH:0.50324
G1 F1200
G1 X100.014 Y109.179 E.01538
G1 X100.159 Y108.905 E.01188
;WIDTH:0.533934
G1 X100.29 Y108.407 E.021
G1 X100.305 Y108.921 E.021
;WIDTH:0.50324
G1 X100.303 Y110.184 E.04832
G1 X100.173 Y109.909 E.01163
G1 X100.015 Y109.705 E.00989
G1 X99.787 Y109.513 E.01141
M204 S1000
;WIPE_START
G1 F8640
G1 X100.014 Y109.179 E-.09319
G1 X100.159 Y108.905 E-.07167
G1 X100.29 Y108.407 E-.11876
G1 X100.305 Y108.921 E-.11879
G1 X100.303 Y110.184 E-.29149
G1 X100.173 Y109.909 E-.07016
G1 X100.015 Y109.705 E-.05967
G1 X99.787 Y109.513 E-.06881
;WIPE_END
G1 E-.10747 F2100
G1 Z.6 F720
G1 X88.655 Y110.774 F10800
G1 Z.2 F720
G1 E1 F2100
M204 S800
;WIDTH:0.419999
G1 F1200
G1 X88.341 Y110.834 E.01
G1 X88.002 Y111.026 E.01223
G1 X87.809 Y111.222 E.00863
G1 X87.575 Y111.271 E.00747
G1 X87.27 Y111.203 E.00981
G1 X87.086 Y111.059 E.00734
G1 X86.909 Y110.622 E.01478
G1 X86.851 Y109.927 E.02187
G1 X86.91 Y109.334 E.01868
G1 X86.981 Y109.064 E.00875
G1 X87.14 Y108.806 E.00949
G1 X87.409 Y108.687 E.00922
G1 X87.603 Y108.68 E.00608
G1 X88.235 Y109.03 E.02265
G1 X88.573 Y109.146 E.01119
G1 X88.925 Y109.18 E.01109
G1 X89.245 Y109.123 E.01021
G1 X89.636 Y108.898 E.01412
G1 X89.966 Y108.456 E.01732
G1 X90.184 Y108.615 E.00848
G1 X90.481 Y108.761 E.01036
G1 X90.956 Y108.824 E.01503
G1 X91.496 Y108.763 E.01702
G1 X91.51 Y111.553 E.08748
G1 X91.496 Y112.35 E.025
G1 X91.517 Y112.836 E.01526
G1 X91.689 Y113.211 E.01294
G1 X92.044 Y113.515 E.01463
G1 X92.256 Y113.612 E.00733
G1 X92.66 Y113.696 E.01293
G1 X93.07 Y113.651 E.01292
G1 X93.451 Y113.485 E.01303
G1 X93.752 Y113.195 E.0131
G1 X93.936 Y112.843 E.01247
G1 X94.029 Y112.361 E.01538
G1 X94.014 Y108.795 E.11183
G1 X94.211 Y108.796 E.00618
G1 X94.804 Y108.751 E.01864
G1 X95.346 Y108.566 E.01795
G1 X95.642 Y108.302 E.01243
G1 X95.796 Y108.518 E.00831
G1 X96.002 Y108.728 E.00924
G1 X96.388 Y108.927 E.01362
G1 X96.349 Y108.97 E.00181
G1 X96.143 Y109.439 E.01607
G1 X96.116 Y109.968 E.01659
G1 X96.3 Y110.418 E.01525
G1 X96.57 Y110.682 E.01184
;WIDTH:0.454218
G1 X96.741 Y110.784 E.00682
;WIDTH:0.488436
G1 X96.913 Y110.886 E.00739
G1 X96.706 Y110.882 E.00765
;WIDTH:0.451998
G1 X96.111 Y111.029 E.02087
;WIDTH:0.419999
G1 X95.702 Y111.357 E.01645
G1 X95.551 Y111.574 E.00827
G1 X95.47 Y111.783 E.00702
G1 X95.418 Y112.196 E.01306
G1 X95.481 Y112.591 E.01253
G1 X95.625 Y112.924 E.01138
G1 X95.907 Y113.274 E.01409
G1 X96.32 Y113.549 E.01557
G1 X97.035 Y113.783 E.02358
G1 X97.915 Y113.839 E.02764
G1 X98.412 Y113.776 E.01571
G1 X99.172 Y113.501 E.02535
G1 X99.65 Y113.148 E.01863
G1 X100.075 Y112.635 E.02089
G1 X100.33 Y112.125 E.01789
G1 X100.372 Y112.697 E.01798
G1 X100.536 Y113.114 E.01406
G1 X100.871 Y113.502 E.01606
G1 X101.206 Y113.656 E.01158
G1 X101.56 Y113.702 E.01118
G1 X102.127 Y113.664 E.01782
G1 X102.878 Y113.67 E.02356
G1 X103.451 Y113.638 E.018
G1 X103.953 Y113.559 E.01594
G1 X104.446 Y113.408 E.01615
G1 X104.925 Y113.117 E.01761
G1 X105.163 Y112.88 E.01051
G1 X105.251 Y113.207 E.01063
G1 X105.54 Y113.626 E.01594
G1 X105.714 Y113.786 E.00742
G1 X106.257 Y114.072 E.01925
G1 X106.652 Y114.147 E.01261
G1 X107.179 Y114.097 E.01658
G1 X107.554 Y113.944 E.01271
G1 X107.972 Y113.622 E.01655
G1 X108.157 Y113.312 E.0113
G1 X108.218 Y113.424 E.00399
G1 X108.419 Y113.612 E.00864
G1 X108.632 Y113.738 E.00776
G1 X108.96 Y113.825 E.01065
G1 X109.401 Y113.779 E.01389
G1 X109.758 Y113.573 E.01294
G1 X110.109 Y113.076 E.01906
G1 X110.351 Y113.476 E.01466
G1 X110.643 Y113.722 E.01197
G1 X110.971 Y113.853 E.01106
G1 X111.326 Y113.873 E.01116
;WIDTH:0.439296
G1 X111.802 Y113.767 E.01606
;WIDTH:0.483411
G1 X112.028 Y113.614 E.01
;WIDTH:0.527525
G1 X112.254 Y113.462 E.011
;WIDTH:0.547455
G1 X112.44 Y113.181 E.01413
;WIDTH:0.575174
G1 X112.506 Y112.946 E.01079
;WIDTH:0.602892
G1 X112.571 Y112.711 E.01135
G1 X112.536 Y112.513 E.00937
;WIDTH:0.564571
G1 X112.501 Y112.315 E.00873
;WIDTH:0.5264
G1 X112.315 Y111.827 E.02101
G1 X112.11 Y111.519 E.01483
;WIDTH:0.490933
G1 X111.906 Y111.212 E.01374
;WIDTH:0.455466
G1 X111.701 Y110.905 E.01266
;WIDTH:0.419999
G1 X111.591 Y110.721 E.00673
G1 X112.116 Y109.776 E.03391
G1 X112.408 Y110.564 E.02636
;WIDTH:0.455466
G1 X112.521 Y110.915 E.01266
;WIDTH:0.490933
G1 X112.635 Y111.266 E.01374
;WIDTH:0.5264
G1 X112.957 Y112.161 E.03823
;WIDTH:0.564571
G1 X113.055 Y112.438 E.01275
;WIDTH:0.602892
G1 X113.153 Y112.715 E.01369
G1 X112.96 Y113.239 E.02603
;WIDTH:0.564913
G1 X112.742 Y113.709 E.02247
G1 X112.589 Y113.786 E.00744
;WIDTH:0.528468
G1 X112.436 Y113.863 E.00692
;WIDTH:0.492023
G1 X112.282 Y113.939 E.0064
;WIDTH:0.455578
G1 X111.92 Y114.163 E.01462
;WIDTH:0.435037
G1 X111.679 Y114.409 E.0112
;WIDTH:0.419999
G1 X111.529 Y114.755 E.01186
G1 X111.526 Y115.3 E.01707
G1 X111.693 Y115.743 E.01486
G1 X112.013 Y116.124 E.0156
G1 X112.247 Y116.269 E.00862
;WIDTH:0.459882
G1 X112.444 Y116.333 E.00721
;WIDTH:0.499765
G1 X112.642 Y116.398 E.0079
;WIDTH:0.539648
G1 X112.84 Y116.463 E.00859
G1 X113.437 Y116.361 E.02503
;WIDTH:0.549232
G1 X114.036 Y116.14 E.02687
G1 X114.103 Y116.076 E.0039
;WIDTH:0.505938
G1 X114.17 Y116.012 E.00357
;WIDTH:0.462643
G1 X114.554 Y115.645 E.01853
;WIDTH:0.419999
G1 X114.894 Y115.139 E.01914
G1 X115.311 Y114.17 E.03306
G1 X115.825 Y112.789 E.04622
;WIDTH:0.439348
G1 X116.244 Y111.624 E.04079
;WIDTH:0.423685
G1 X116.524 Y110.834 E.02657
;WIDTH:0.419999
G1 X116.854 Y109.78 E.03463
G1 X117.007 Y109.923 E.00658
G1 X117.274 Y110.063 E.00944
G1 X117.795 Y110.154 E.01657
G1 X117.441 Y110.552 E.01671
G1 X117.018 Y111.123 E.02227
;WIDTH:0.423685
G1 X116.587 Y111.784 E.02499
;WIDTH:0.439348
G1 X116.418 Y112.334 E.01895
G1 X116.409 Y112.536 E.00668
;WIDTH:0.430278
G1 X116.504 Y113.05 E.01683
;WIDTH:0.419999
G1 X116.678 Y113.396 E.01216
G1 X117.019 Y113.705 E.01442
G1 X117.272 Y113.818 E.0087
G1 X117.635 Y113.882 E.01153
G1 X118.203 Y113.881 E.01781
G1 X119.365 Y113.832 E.03649
G1 X118.429 Y114.554 E.03708
G1 X117.537 Y115.161 E.03382
G1 X116.431 Y115.781 E.03975
G1 X115.563 Y116.19 E.03008
G1 X114.998 Y116.417 E.01909
;WIDTH:0.446769
G1 X114.721 Y116.5 E.00971
;WIDTH:0.473538
G1 X114.444 Y116.583 E.01035
;WIDTH:0.506206
G1 X114.199 Y116.641 E.00971
;WIDTH:0.538873
G1 X113.195 Y116.902 E.04278
;WIDTH:0.526254
G1 X112.871 Y116.993 E.01351
;WIDTH:0.476444
G1 X112.548 Y117.085 E.01212
;WIDTH:0.426633
G1 X111.99 Y117.178 E.01804
;WIDTH:0.419999
G1 X111.385 Y117.249 E.01909
G1 X110.758 Y117.294 E.01973
G1 X109.991 Y117.312 E.02405
G1 X109.183 Y117.285 E.02535
G1 X85.993 Y115.876 E.72844
G1 X85.569 Y115.797 E.01351
G1 X85.352 Y115.708 E.00737
G1 X85.109 Y115.488 E.01027
G1 X85.008 Y115.263 E.00774
G1 X84.918 Y114.922 E.01105
G1 X84.912 Y112.434 E.07802
G1 X85.188 Y112.808 E.01457
